(Generated with: DXF2GCODE, Version: PyQt4 Beta, Date: $Date:: 2015-02-04 13:44:52#$)
(Created from file: /home/bp/Documents/Usinages/Balises/BIRR_socleTourelle.dxf)
(Time: Wed Feb 18 08:33:45 2015)
G21 (Units in millimeters) (PLEASE CHECK TOOL WITH EMC2 TOOL TABLE) G90 (Absolute programming) G64 (Default cutting) G17 (XY plane) G40 (Cancel radius comp.) G49 (Cancel length comp.)
G0 Z  15.000 

(*** LAYER: 0 ***)
T1 M6
S6000

(* SHAPE Nr: 2 *)
G0 X   6.500 Y  -4.000
M3 M8
G41
F120
G1 X   7.000 Y  -3.500
G3 X   6.000 Y  -2.500 I  -1.000 J   0.000
G0 Z   3.000 
F40
G1 Z  -1.000
F120
G1 X -10.000 Y  -2.500
G1 X -10.000 Y  27.500
G1 X -12.000 Y  27.500
G1 X -12.000 Y  -2.500
G1 X -29.500 Y  -2.500
G1 X -29.500 Y  -4.500
G1 X -12.000 Y  -4.500
G1 X -12.000 Y -28.000
G1 X -10.000 Y -28.000
G1 X -10.000 Y  -4.500
G1 X   6.000 Y  -4.500
G1 X   6.000 Y -28.000
G1 X   8.000 Y -28.000
G1 X   8.000 Y  -4.500
G1 X  29.500 Y  -4.500
G1 X  29.500 Y  -2.500
G1 X   8.000 Y  -2.500
G1 X   8.000 Y  27.500
G1 X   6.000 Y  27.500
G1 X   6.000 Y  -2.500
F40
G1 Z   3.000
G0 Z  15.000 
G40

(* SHAPE Nr: 0 *)
G0 X  -0.707 Y  -0.000
G41
F120
G1 X  -1.414 Y  -0.000
G3 X  -1.414 Y  -1.414 I   0.707 J  -0.707
G0 Z   3.000 
F40
G1 Z  -1.000
F120
G3 X   1.414 Y   1.414 I   1.414 J   1.414
G3 X  -1.414 Y  -1.414 I  -1.414 J  -1.414
F40
G1 Z  -2.000
F120
G3 X   1.414 Y   1.414 I   1.414 J   1.414
G3 X  -1.414 Y  -1.414 I  -1.414 J  -1.414
F40
G1 Z   3.000
G0 Z  15.000 
G40

(* SHAPE Nr: 1 *)
G0 X  21.076 Y -12.817
G41
F120
G1 X  20.369 Y -12.817
G3 X  20.369 Y -14.231 I   0.707 J  -0.707
G0 Z   3.000 
F40
G1 Z  -1.000
F120
G3 X  22.631 Y -11.969 I   1.131 J   1.131
G3 X  20.369 Y -14.231 I  -1.131 J  -1.131
F40
G1 Z  -2.000
F120
G3 X  22.631 Y -11.969 I   1.131 J   1.131
G3 X  20.369 Y -14.231 I  -1.131 J  -1.131
F40
G1 Z   3.000
G0 Z  15.000 
G40

(* SHAPE Nr: 3 *)
G0 X -10.842 Y -29.580
G41
F120
G1 X -10.196 Y -29.292
G3 X -10.770 Y -28.000 I  -0.933 J   0.359
G0 Z   3.000 
F40
G1 Z  -1.000
F120
G2 X -11.990 Y  27.500 I  10.770 J  28.000
G2 X -10.770 Y -28.000 I  11.990 J -27.500
F40
G1 Z  -2.000
F120
G2 X -11.990 Y  27.500 I  10.770 J  28.000
G2 X -10.770 Y -28.000 I  11.990 J -27.500
F40
G1 Z   3.000
G0 Z  15.000 
G40
M9 M5

G0 X   0.000 Y   0.000
G40 G53 G0 X0 Y0 Z0 M2 (Program end)