(Generated with: DXF2GCODE, Version: PyQt4 Beta, Date: $Date:: 2015-02-04 13:44:52#$)
(Created from file: /home/bp/Documents/Usinages/socle_test.dxf)
(Time: Mon Feb 16 00:27:17 2015)
G21 (Units in millimeters) (PLEASE CHECK TOOL WITH EMC2 TOOL TABLE) G90 (Absolute programming) G64 (Default cutting) G17 (XY plane) G40 (Cancel radius comp.) G49 (Cancel length comp.)
G0 Z  15.000 

(*** LAYER: 0 ***)
T1 M6 (1mm cutter tool)
S6000

(* SHAPE Nr: 6 *)
G0 X -21.783 Y -12.676
M3 M8
G42
F120
G1 X -21.783 Y -11.969
G2 X -20.369 Y -11.969 I   0.707 J  -0.707
G0 Z   3.000 
F40
G1 Z  -1.000
F120
G2 X -22.631 Y -14.231 I  -1.131 J  -1.131
G2 X -20.369 Y -11.969 I   1.131 J   1.131
F40
G1 Z   3.000
G0 Z  15.000 
G40

(* SHAPE Nr: 10 *)
G0 X  -6.500 Y  -4.000
G42
F120
G1 X  -7.000 Y  -3.500
G2 X  -6.000 Y  -2.500 I   1.000 J   0.000
G0 Z   3.000 
F40
G1 Z  -1.000
F120
G1 X  10.000 Y  -2.500
G1 X  10.000 Y  27.500
G1 X  12.000 Y  27.500
G1 X  12.000 Y  -2.500
G1 X  29.500 Y  -2.500
G1 X  29.500 Y  -4.500
G1 X  12.000 Y  -4.500
G1 X  12.000 Y -28.000
G1 X  10.000 Y -28.000
G1 X  10.000 Y  -4.500
G1 X  -6.000 Y  -4.500
G1 X  -6.000 Y -28.000
G1 X  -8.000 Y -28.000
G1 X  -8.000 Y  -4.500
G1 X -35.500 Y  -4.500
G1 X -35.500 Y  -2.500
G1 X  -8.000 Y  -2.500
G1 X  -8.000 Y  27.500
G1 X  -6.000 Y  27.500
G1 X  -6.000 Y  -2.500
F40
G1 Z   3.000
G0 Z  15.000 
G40
M9 M5

(*** LAYER: 1 ***)
T2 M6 (3.17 Diamond cutter)
S6000

(* SHAPE Nr: 5 *)
G0 X -27.991 Y -29.405
M3 M8
G41
F200
G1 X -26.163 Y -29.819
G3 X -26.163 Y -26.163 I  -1.828 J   1.828
G0 Z   3.000 
F40
G1 Z  -1.000
F200
G2 X  26.163 Y  26.163 I  26.163 J  26.163
G2 X -26.163 Y -26.163 I -26.163 J -26.163
F40
G1 Z   3.000
G0 Z  15.000 
G40

(*** LAYER: 2 ***)

(* SHAPE Nr: 4 *)
G0 X   0.000 Y   0.000
F200
G0 Z   3.000 
F40
G1 Z  -3.050
G1 Z   3.000
G0 Z  15.000 

(* SHAPE Nr: 0 *)
G0 X -45.000 Y   0.000
F200
G0 Z   3.000 
F40
G1 Z  -3.050
G1 Z   3.000
G0 Z  15.000 

(* SHAPE Nr: 1 *)
G0 X   0.000 Y  45.000
F200
G0 Z   3.000 
F40
G1 Z  -3.050
G1 Z   3.000
G0 Z  15.000 

(* SHAPE Nr: 2 *)
G0 X  0.000 Y -45.000
F200
G0 Z   3.000 
F40
G1 Z  -3.050
G1 Z   3.000
G0 Z  15.000 

(* SHAPE Nr: 3 *)
G0 X  45.000 Y   0.000
F200
G0 Z   3.000 
F40
G1 Z  -3.050
G1 Z   3.000
G0 Z  15.000 

(* SHAPE Nr: 9 *)
G0 X  30.112 Y -31.526
G42
F200
G1 X  28.284 Y -31.940
G2 X  28.284 Y -28.284 I   1.828 J   1.828
G0 Z   3.000 
F40
G1 Z  -1.050
F200
G1 X  56.569 Y   0.000
G1 X  -0.000 Y  56.569
G1 X -56.569 Y   0.000
G1 X   0.000 Y -56.569
G1 X  28.284 Y -28.284
F40
G1 Z  -2.100
F200
G1 X  56.569 Y   0.000
G1 X  -0.000 Y  56.569
G1 X -56.569 Y   0.000
G1 X   0.000 Y -56.569
G1 X  28.284 Y -28.284
F40
G1 Z  -3.050
F200
G1 X  56.569 Y   0.000
G1 X  -0.000 Y  56.569
G1 X -56.569 Y   0.000
G1 X   0.000 Y -56.569
G1 X  28.284 Y -28.284
F40
G1 Z   3.000
G0 Z  15.000 
G40
M9 M5

(*** END ***)
G0 X   0.000 Y   0.000
G40 G53 G0 X0 Y0 Z0 M2 (Program end)