(Generated with: DXF2GCODE, Version: PyQt4 Beta, Date: $Date:: 2015-02-04 13:44:52#$)
(Created from file: /home/bp/Documents/Usinages/Balises/BIRR_fixMoteurPileB.dxf)
(Time: Mon Feb 16 19:14:18 2015)
G21 (Units in millimeters) (PLEASE CHECK TOOL WITH EMC2 TOOL TABLE) G90 (Absolute programming) G64 (Default cutting) G17 (XY plane) G40 (Cancel radius comp.) G49 (Cancel length comp.)
G0 Z  15.000 

(*** LAYER: 0 ***)
T1 M6
S6000

(* SHAPE Nr: 0 *)
G0 X -16.077 Y  -8.500
M3 M8
G41
F120
G1 X -15.577 Y  -8.000
G3 X -16.577 Y  -7.000 I  -1.000 J   0.000
G0 Z   3.000 
F40
G1 Z  -1.000
F120
G1 X -26.304 Y  -7.000
G1 X -29.191 Y -12.000
G1 X -13.691 Y -12.000
G1 X -16.577 Y  -7.000
F40
G1 Z  -2.000
F120
G1 X -26.304 Y  -7.000
G1 X -29.191 Y -12.000
G1 X -13.691 Y -12.000
G1 X -16.577 Y  -7.000
F40
G1 Z   3.000
G0 Z  15.000 
G40

(* SHAPE Nr: 1 *)
G0 X   0.500 Y   9.500
G41
F120
G1 X   1.000 Y  10.000
G3 X   0.000 Y  11.000 I  -1.000 J   0.000
G0 Z   3.000 
F40
G1 Z  -1.000
F120
G1 X -14.000 Y  11.000
G1 X -14.000 Y  -4.536
G1 X  -9.691 Y -12.000
G1 X   0.000 Y -12.000
G1 X   0.000 Y -16.000
G1 X -35.500 Y -16.000
G1 X -33.191 Y -12.000
G1 X -29.500 Y  -5.608
G1 X -29.500 Y  16.000
G1 X  -3.000 Y  16.000
G1 X  -3.000 Y  13.000
G1 X   0.000 Y  13.000
G1 X   0.000 Y  11.000
F40
G1 Z  -2.000
F120
G1 X -14.000 Y  11.000
G1 X -14.000 Y  -4.536
G1 X  -9.691 Y -12.000
G1 X   0.000 Y -12.000
G1 X   0.000 Y -16.000
G1 X -35.500 Y -16.000
G1 X -33.191 Y -12.000
G1 X -29.500 Y  -5.608
G1 X -29.500 Y  16.000
G1 X  -3.000 Y  16.000
G1 X  -3.000 Y  13.000
G1 X   0.000 Y  13.000
G1 X   0.000 Y  11.000
F40
G1 Z   3.000
G0 Z  15.000 
G40
M9 M5
G0 X   0.000 Y   0.000
G40 G53 G0 X0 Y0 Z0 M2 (Program end)