(Generated with: DXF2GCODE, Version: PyQt4 Beta, Date: $Date:: 2015-02-04 13:44:52#$)
(Created from file: /home/bp/Documents/Usinages/BaseRoulante/BR_chassis.dxf)
(Time: Wed May  6 17:43:55 2015)
G21 (Units in millimeters) (PLEASE CHECK TOOL WITH EMC2 TOOL TABLE) G90 (Absolute programming) G64 (Default cutting) G17 (XY plane) G40 (Cancel radius comp.) G49 (Cancel length comp.)
G0 Z  15.000 

(*** LAYER: 0 ***)
T2 M6
S6000

(* SHAPE Nr: # - Origin mark *)
G0 X 102.500 Y 175.000
M3 M8
G0 Z   3.000
F40
G1 Z  -1.000
G1 Z  3.000

(* SHAPE Nr: 1 - Bille D *)
G0 X 218.428 Y  76.014
G42
F120
G1 X 218.842 Y  74.186
G2 X 215.186 Y  74.186 I  -1.828 J   1.828
G0 Z   3.000 
F40
G1 Z  -1.500
F120
G2 X 237.814 Y  96.814 I  11.314 J  11.314
G2 X 215.186 Y  74.186 I -11.314 J -11.314
F40
G1 Z  -3.000
F120
G2 X 237.814 Y  96.814 I  11.314 J  11.314
G2 X 215.186 Y  74.186 I -11.314 J -11.314
F40
G1 Z  -4.500
F120
G2 X 237.814 Y  96.814 I  11.314 J  11.314
G2 X 215.186 Y  74.186 I -11.314 J -11.314
F40
G1 Z  -6.000
F120
G2 X 237.814 Y  96.814 I  11.314 J  11.314
G2 X 215.186 Y  74.186 I -11.314 J -11.314
F40
G1 Z  -7.500
F120
G2 X 237.814 Y  96.814 I  11.314 J  11.314
G2 X 215.186 Y  74.186 I -11.314 J -11.314
F40
G1 Z  -9.000
F120
G2 X 237.814 Y  96.814 I  11.314 J  11.314
G2 X 215.186 Y  74.186 I -11.314 J -11.314
F40
G1 Z -10.000
F120
G2 X 237.814 Y  96.814 I  11.314 J  11.314
G2 X 215.186 Y  74.186 I -11.314 J -11.314
F40
G1 Z   3.000
G0 Z  15.000 
G40

(* SHAPE Nr: 2 - Bille G *)
G0 X 218.428 Y 255.014
G42
F120
G1 X 218.842 Y 253.186
G2 X 215.186 Y 253.186 I  -1.828 J   1.828
G0 Z   3.000 
F40
G1 Z  -1.500
F120
G2 X 237.814 Y 275.814 I  11.314 J  11.314
G2 X 215.186 Y 253.186 I -11.314 J -11.314
F40
G1 Z  -3.000
F120
G2 X 237.814 Y 275.814 I  11.314 J  11.314
G2 X 215.186 Y 253.186 I -11.314 J -11.314
F40
G1 Z  -4.500
F120
G2 X 237.814 Y 275.814 I  11.314 J  11.314
G2 X 215.186 Y 253.186 I -11.314 J -11.314
F40
G1 Z  -6.000
F120
G2 X 237.814 Y 275.814 I  11.314 J  11.314
G2 X 215.186 Y 253.186 I -11.314 J -11.314
F40
G1 Z  -7.500
F120
G2 X 237.814 Y 275.814 I  11.314 J  11.314
G2 X 215.186 Y 253.186 I -11.314 J -11.314
F40
G1 Z  -9.000
F120
G2 X 237.814 Y 275.814 I  11.314 J  11.314
G2 X 215.186 Y 253.186 I -11.314 J -11.314
F40
G1 Z -10.000
F120
G2 X 237.814 Y 275.814 I  11.314 J  11.314
G2 X 215.186 Y 253.186 I -11.314 J -11.314
F40
G1 Z   3.000
G0 Z  15.000 
G40

(* SHAPE Nr: 5 - Roue G *)
G0 X  68.585 Y 279.000
G42
F120
G1 X  67.585 Y 277.415
G2 X  65.000 Y 280.000 I   0.000 J   2.585
G0 Z   3.000 
F40
G1 Z  -1.500
F120
G1 X  65.000 Y 340.000
G1 X 140.000 Y 340.000
G1 X 140.000 Y 280.000
G1 X  65.000 Y 280.000
F40
G1 Z  -3.000
F120
G1 X  65.000 Y 340.000
G1 X 140.000 Y 340.000
G1 X 140.000 Y 280.000
G1 X  65.000 Y 280.000
F40
G1 Z  -4.500
F120
G1 X  65.000 Y 340.000
G1 X 140.000 Y 340.000
G1 X 140.000 Y 280.000
G1 X  65.000 Y 280.000
F40
G1 Z  -6.000
F120
G1 X  65.000 Y 340.000
G1 X 140.000 Y 340.000
G1 X 140.000 Y 280.000
G1 X  65.000 Y 280.000
F40
G1 Z  -7.500
F120
G1 X  65.000 Y 340.000
G1 X 140.000 Y 340.000
G1 X 140.000 Y 280.000
G1 X  65.000 Y 280.000
F40
G1 Z  -9.000
F120
G1 X  65.000 Y 340.000
G1 X 140.000 Y 340.000
G1 X 140.000 Y 280.000
G1 X  65.000 Y 280.000
F40
G1 Z -10.000
F120
G1 X  65.000 Y 340.000
G1 X 140.000 Y 340.000
G1 X 140.000 Y 280.000
G1 X  70.000 Y 280.000
F40
G1 X  65.000 Y 280.000
G1 Z   3.000
G0 Z  15.000 
G40

(* SHAPE Nr: 7 - Codeur G *)
G0 X  81.085 Y 207.000
G42
F120
G1 X  80.085 Y 205.415
G2 X  77.500 Y 208.000 I   0.000 J   2.585
G0 Z   3.000 
F40
G1 Z  -1.500
F120
G1 X  77.500 Y 270.000
G1 X 127.500 Y 270.000
G1 X 127.500 Y 208.000
G1 X  77.500 Y 208.000
F40
G1 Z  -3.000
F120
G1 X  77.500 Y 270.000
G1 X 127.500 Y 270.000
G1 X 127.500 Y 208.000
G1 X  77.500 Y 208.000
F40
G1 Z  -4.500
F120
G1 X  77.500 Y 270.000
G1 X 127.500 Y 270.000
G1 X 127.500 Y 208.000
G1 X  77.500 Y 208.000
F40
G1 Z  -6.000
F120
G1 X  77.500 Y 270.000
G1 X 127.500 Y 270.000
G1 X 127.500 Y 208.000
G1 X  77.500 Y 208.000
F40
G1 Z  -7.500
F120
G1 X  77.500 Y 270.000
G1 X 127.500 Y 270.000
G1 X 127.500 Y 208.000
G1 X  77.500 Y 208.000
F40
G1 Z  -9.000
F120
G1 X  77.500 Y 270.000
G1 X 127.500 Y 270.000
G1 X 127.500 Y 208.000
G1 X  77.500 Y 208.000
F40
G1 Z -10.000
F120
G1 X  77.500 Y 270.000
G1 X 127.500 Y 270.000
G1 X 127.500 Y 208.000
G1 X  82.500 Y 208.000
F40
G1 X  77.500 Y 208.000
G1 Z   3.000
G0 Z  15.000 
G40

(* SHAPE Nr: 6 - Codeur D *)
G0 X  81.085 Y  79.000
G42
F120
G1 X  80.085 Y  77.415
G2 X  77.500 Y  80.000 I   0.000 J   2.585
G0 Z   3.000 
F40
G1 Z  -1.500
F120
G1 X  77.500 Y 142.000
G1 X 127.500 Y 142.000
G1 X 127.500 Y  80.000
G1 X  77.500 Y  80.000
F40
G1 Z  -3.000
F120
G1 X  77.500 Y 142.000
G1 X 127.500 Y 142.000
G1 X 127.500 Y  80.000
G1 X  77.500 Y  80.000
F40
G1 Z  -4.500
F120
G1 X  77.500 Y 142.000
G1 X 127.500 Y 142.000
G1 X 127.500 Y  80.000
G1 X  77.500 Y  80.000
F40
G1 Z  -6.000
F120
G1 X  77.500 Y 142.000
G1 X 127.500 Y 142.000
G1 X 127.500 Y  80.000
G1 X  77.500 Y  80.000
F40
G1 Z  -7.500
F120
G1 X  77.500 Y 142.000
G1 X 127.500 Y 142.000
G1 X 127.500 Y  80.000
G1 X  77.500 Y  80.000
F40
G1 Z  -9.000
F120
G1 X  77.500 Y 142.000
G1 X 127.500 Y 142.000
G1 X 127.500 Y  80.000
G1 X  77.500 Y  80.000
F40
G1 Z -10.000
F120
G1 X  77.500 Y 142.000
G1 X 127.500 Y 142.000
G1 X 127.500 Y  80.000
G1 X  82.500 Y  80.000
F40
G1 X  77.500 Y  80.000
G1 Z   3.000
G0 Z  15.000 
G40

(* SHAPE Nr: 4 - Roue D *)
G0 X  68.585 Y   9.000
G42
F120
G1 X  67.585 Y   7.415
G2 X  65.000 Y  10.000 I   0.000 J   2.585
G0 Z   3.000 
F40
G1 Z  -1.500
F120
G1 X  65.000 Y  70.000
G1 X 140.000 Y  70.000
G1 X 140.000 Y  10.000
G1 X  65.000 Y  10.000
F40
G1 Z  -3.000
F120
G1 X  65.000 Y  70.000
G1 X 140.000 Y  70.000
G1 X 140.000 Y  10.000
G1 X  65.000 Y  10.000
F40
G1 Z  -4.500
F120
G1 X  65.000 Y  70.000
G1 X 140.000 Y  70.000
G1 X 140.000 Y  10.000
G1 X  65.000 Y  10.000
F40
G1 Z  -6.000
F120
G1 X  65.000 Y  70.000
G1 X 140.000 Y  70.000
G1 X 140.000 Y  10.000
G1 X  65.000 Y  10.000
F40
G1 Z  -7.500
F120
G1 X  65.000 Y  70.000
G1 X 140.000 Y  70.000
G1 X 140.000 Y  10.000
G1 X  65.000 Y  10.000
F40
G1 Z  -9.000
F120
G1 X  65.000 Y  70.000
G1 X 140.000 Y  70.000
G1 X 140.000 Y  10.000
G1 X  65.000 Y  10.000
F40
G1 Z -10.000
F120
G1 X  65.000 Y  70.000
G1 X 140.000 Y  70.000
G1 X 140.000 Y  10.000
G1 X  70.000 Y  10.000
F40
G1 X  65.000 Y  10.000
G1 Z   3.000
G0 Z  15.000 
G40

(* SHAPE Nr: 3 - Contour *)
G0 X  -2.500 Y  -3.585
G42
F120
G1 X  -4.085 Y  -2.585
G2 X  -1.500 Y   0.000 I   2.585 J  -0.000
G0 Z   3.000 
F40
G1 Z  -1.500
F120
G1 X 150.000 Y   0.000
G1 X 273.538 Y 103.661
G3 X 274.181 Y 118.392 I  -6.428 J   7.660
G1 X 238.787 Y 153.787
G2 X 238.787 Y 196.213 I  21.213 J  21.213
G1 X 274.181 Y 231.608
G3 X 273.538 Y 246.339 I  -7.071 J   7.071
G1 X 150.000 Y 350.000
G1 X  -1.500 Y 350.000
G1 Z   3.000
F120
G1 X  -1.500 Y 300.000
G0 X  -1.500 Y   0.000
F40
G1 Z  -3.000
F120
G1 X 150.000 Y   0.000
G1 X 273.538 Y 103.661
G3 X 274.181 Y 118.392 I  -6.428 J   7.660
G1 X 238.787 Y 153.787
G2 X 238.787 Y 196.213 I  21.213 J  21.213
G1 X 274.181 Y 231.608
G3 X 273.538 Y 246.339 I  -7.071 J   7.071
G1 X 150.000 Y 350.000
G1 X  -1.500 Y 350.000
G1 Z   3.000
F120
G1 X  -1.500 Y 300.000
G0 X  -1.500 Y   0.000
F40
G1 Z  -4.500
F120
G1 X 150.000 Y   0.000
G1 X 273.538 Y 103.661
G3 X 274.181 Y 118.392 I  -6.428 J   7.660
G1 X 238.787 Y 153.787
G2 X 238.787 Y 196.213 I  21.213 J  21.213
G1 X 274.181 Y 231.608
G3 X 273.538 Y 246.339 I  -7.071 J   7.071
G1 X 150.000 Y 350.000
G1 X  -1.500 Y 350.000
G1 Z   3.000
F120
G1 X  -1.500 Y 300.000
G0 X  -1.500 Y   0.000
F40
G1 Z  -6.000
F120
G1 X 150.000 Y   0.000
G1 X 273.538 Y 103.661
G3 X 274.181 Y 118.392 I  -6.428 J   7.660
G1 X 238.787 Y 153.787
G2 X 238.787 Y 196.213 I  21.213 J  21.213
G1 X 274.181 Y 231.608
G3 X 273.538 Y 246.339 I  -7.071 J   7.071
G1 X 150.000 Y 350.000
G1 X  -1.500 Y 350.000
G1 Z   3.000
F120
G1 X  -1.500 Y 300.000
G0 X  -1.500 Y   0.000
F40
G1 Z  -7.500
F120
G1 X 150.000 Y   0.000
G1 X 273.538 Y 103.661
G3 X 274.181 Y 118.392 I  -6.428 J   7.660
G1 X 238.787 Y 153.787
G2 X 238.787 Y 196.213 I  21.213 J  21.213
G1 X 274.181 Y 231.608
G3 X 273.538 Y 246.339 I  -7.071 J   7.071
G1 X 150.000 Y 350.000
G1 X  -1.500 Y 350.000
G1 Z   3.000
F120
G1 X  -1.500 Y 300.000
G0 X  -1.500 Y   0.000
F40
G1 Z  -9.000
F120
G1 X 150.000 Y   0.000
G1 X 273.538 Y 103.661
G3 X 274.181 Y 118.392 I  -6.428 J   7.660
G1 X 238.787 Y 153.787
G2 X 238.787 Y 196.213 I  21.213 J  21.213
G1 X 274.181 Y 231.608
G3 X 273.538 Y 246.339 I  -7.071 J   7.071
G1 X 150.000 Y 350.000
G1 X  -1.500 Y 350.000
G1 Z   3.000
F120
G1 X  -1.500 Y 300.000
G0 X  -1.500 Y   0.000
F40
G1 Z -10.000
F120
G1 X 150.000 Y   0.000
G1 X 273.538 Y 103.661
G3 X 274.181 Y 118.392 I  -6.428 J   7.660
G1 X 238.787 Y 153.787
G2 X 238.787 Y 196.213 I  21.213 J  21.213
G1 X 274.181 Y 231.608
G3 X 273.538 Y 246.339 I  -7.071 J   7.071
G1 X 150.000 Y 350.000
G1 X  -1.500 Y 350.000
G1 Z   3.000
F120
G1 X  -1.500 Y 300.000
G0 X  -1.500 Y   0.000
(F40)
(G1 Z   3.000)
G0 Z  15.000 
G40
M9 M5

G0 X   0.000 Y   0.000
G40 G53 G0 X0 Y0 Z0 M2 (Program end)