(Generated with: DXF2GCODE, Version: PyQt4 Beta, Date: $Date:: 2015-02-04 13:44:52#$)
(Created from file: /home/bp/Documents/Usinages/BaseRoulante/BR_supportMoteurW.dxf)
(Time: Mon May  4 23:31:35 2015)
G21 (Units in millimeters) (PLEASE CHECK TOOL WITH EMC2 TOOL TABLE) G90 (Absolute programming) G64 (Default cutting) G17 (XY plane) G40 (Cancel radius comp.) G49 (Cancel length comp.)
G0 Z  15.000 

(*** LAYER: 0 ***)
T2 M6
S6000

(* SHAPE Nr: 1 - Poche roulement *)
G0 X  98.611 Y  14.111
M3 M8
G0 Z   3.000 
F40
G1 Z  -1.600
F120
G2 X 106.389 Y  21.889 I   3.889 J   3.889
G2 X  98.611 Y  14.111 I  -3.889 J  -3.889
F40
G1 Z  -3.200
F120
G2 X 106.389 Y  21.889 I   3.889 J   3.889
G2 X  98.611 Y  14.111 I  -3.889 J  -3.889
F40
G1 Z  -4.700
F120
G2 X 106.389 Y  21.889 I   3.889 J   3.889
G2 X  98.611 Y  14.111 I  -3.889 J  -3.889
F40
G1 Z  -6.150
F120
G2 X 106.389 Y  21.889 I   3.889 J   3.889
G2 X  98.611 Y  14.111 I  -3.889 J  -3.889
F40
G1 Z   3.000
G0 X  98.954 Y  13.040
G42
F120
G1 X  99.368 Y  11.212
G2 X  95.712 Y  11.212 I  -1.828 J   1.828
G0 Z   3.000 
F40
G1 Z  -1.600
F120
G2 X 109.288 Y  24.788 I   6.788 J   6.788
G2 X  95.712 Y  11.212 I  -6.788 J  -6.788
F40
G1 Z  -3.200
F120
G2 X 109.288 Y  24.788 I   6.788 J   6.788
G2 X  95.712 Y  11.212 I  -6.788 J  -6.788
F40
G1 Z  -4.700
F120
G2 X 109.288 Y  24.788 I   6.788 J   6.788
G2 X  95.712 Y  11.212 I  -6.788 J  -6.788
F40
G1 Z  -6.150
F120
G2 X 109.288 Y  24.788 I   6.788 J   6.788
G2 X  95.712 Y  11.212 I  -6.788 J  -6.788
F40
G1 Z   3.000
G0 Z  15.000 
G40


(* SHAPE Nr: 2 - Axe *)
G0 X 101.853 Y  15.939
G42
F120
G1 X 102.267 Y  14.111
G2 X  98.611 Y  14.111 I  -1.828 J   1.828
G0 Z   3.000 
F40
G1 Z  -1.500
F120
G2 X 106.389 Y  21.889 I   3.889 J   3.889
G2 X  98.611 Y  14.111 I  -3.889 J  -3.889
F40
G1 Z  -3.000
F120
G2 X 106.389 Y  21.889 I   3.889 J   3.889
G2 X  98.611 Y  14.111 I  -3.889 J  -3.889
F40
G1 Z  -4.500
F120
G2 X 106.389 Y  21.889 I   3.889 J   3.889
G2 X  98.611 Y  14.111 I  -3.889 J  -3.889
F40
G1 Z  -6.000
F120
G2 X 106.389 Y  21.889 I   3.889 J   3.889
G2 X  98.611 Y  14.111 I  -3.889 J  -3.889
F40
G1 Z  -7.500
F120
G2 X 106.389 Y  21.889 I   3.889 J   3.889
G2 X  98.611 Y  14.111 I  -3.889 J  -3.889
F40
G1 Z  -9.000
F120
G2 X 106.389 Y  21.889 I   3.889 J   3.889
G2 X  98.611 Y  14.111 I  -3.889 J  -3.889
F40
G1 Z -10.000
F120
G2 X 106.389 Y  21.889 I   3.889 J   3.889
G2 X  98.611 Y  14.111 I  -3.889 J  -3.889
F40
G1 Z   3.000
G0 Z  15.000 
G40

(* SHAPE Nr: 3 - Contour *)
G0 X  -1.000 Y  -3.585
G42
F120
G1 X  -2.585 Y  -2.585
G2 X   0.000 Y   0.000 I   2.585 J  -0.000
G0 Z   3.000 
F40
G1 Z  -1.500
F120
G1 X 150.000 Y   0.000
G1 X 150.000 Y  83.000
G1 X   0.000 Y  83.000
G1 X   0.000 Y   0.000
F40
G1 Z  -3.000
F120
G1 X 150.000 Y   0.000
G1 X 150.000 Y  83.000
G1 X   0.000 Y  83.000
G1 X   0.000 Y   0.000
F40
G1 Z  -4.500
F120
G1 X 150.000 Y   0.000
G1 X 150.000 Y  83.000
G1 X   0.000 Y  83.000
G1 X   0.000 Y   0.000
F40
G1 Z  -6.000
F120
G1 X 150.000 Y   0.000
G1 X 150.000 Y  83.000
G1 X   0.000 Y  83.000
G1 X   0.000 Y   0.000
F40
G1 Z  -7.500
F120
G1 X 150.000 Y   0.000
G1 X 150.000 Y  83.000
G1 X   0.000 Y  83.000
G1 X   0.000 Y   0.000
F40
G1 Z  -9.000
F120
G1 X 150.000 Y   0.000
G1 X 150.000 Y  83.000
G1 X   0.000 Y  83.000
G1 X   0.000 Y   0.000
F40
G1 Z -10.000
F120
G1 X 150.000 Y   0.000
G1 X 150.000 Y  83.000
G1 X   0.000 Y  83.000
G1 X   0.000 Y   0.000
F40
G1 Z   3.000
G0 Z  15.000 
G40
M9 M5

G0 X   0.000 Y   0.000
G40 G53 G0 X0 Y0 Z0 M2 (Program end)