(Generated with: DXF2GCODE, Version: PyQt4 Beta, Date: $Date:: 2015-02-04 13:44:52#$)
(Created from file: /home/bp/Documents/Usinages/Pince/export15gear/base_bot_top.dxf)
(Time: Mon Apr  6 20:13:23 2015)
G21 (Units in millimeters) (PLEASE CHECK TOOL WITH EMC2 TOOL TABLE) G90 (Absolute programming) G64 (Default cutting) G17 (XY plane) G40 (Cancel radius comp.) G49 (Cancel length comp.)
G0 Z  15.000 

(*** LAYER: 0 ***)
T2 M6
S6000

(* SHAPE Nr: 0 - Trou axe L *)
G0 X -33.974 Y  -0.060
M3 M8
G42
F100
G1 X -34.388 Y   1.768
G2 X -30.732 Y   1.768 I   1.828 J  -1.828
G0 Z   3.000 
F40
G1 Z  -1.500
F100
G2 X -34.268 Y  -1.768 I  -1.768 J  -1.768
G2 X -30.732 Y   1.768 I   1.768 J   1.768
F40
G1 Z  -3.000
F100
G2 X -34.268 Y  -1.768 I  -1.768 J  -1.768
G2 X -30.732 Y   1.768 I   1.768 J   1.768
F40
G1 Z  -4.500
F100
G2 X -34.268 Y  -1.768 I  -1.768 J  -1.768
G2 X -30.732 Y   1.768 I   1.768 J   1.768
F40
G1 Z  -6.000
F100
G2 X -34.268 Y  -1.768 I  -1.768 J  -1.768
G2 X -30.732 Y   1.768 I   1.768 J   1.768
F40
G1 Z   3.000
G0 Z  15.000 
G40

(* SHAPE Nr: 1 - Trou axe R *)
G0 X  33.974 Y   0.060
G42
F100
G1 X  34.388 Y  -1.768
G2 X  30.732 Y  -1.768 I  -1.828 J   1.828
G0 Z   3.000 
F40
G1 Z  -1.500
F100
G2 X  34.268 Y   1.768 I   1.768 J   1.768
G2 X  30.732 Y  -1.768 I  -1.768 J  -1.768
F40
G1 Z  -3.000
F100
G2 X  34.268 Y   1.768 I   1.768 J   1.768
G2 X  30.732 Y  -1.768 I  -1.768 J  -1.768
F40
G1 Z  -4.500
F100
G2 X  34.268 Y   1.768 I   1.768 J   1.768
G2 X  30.732 Y  -1.768 I  -1.768 J  -1.768
F40
G1 Z  -6.000
F100
G2 X  34.268 Y   1.768 I   1.768 J   1.768
G2 X  30.732 Y  -1.768 I  -1.768 J  -1.768
F40
G1 Z   3.000
G0 Z  15.000 
G40

(* SHAPE Nr: 2 - Trou glissiere R *)
G0 X  75.292 Y  -6.122
G42
F100
G1 X  75.706 Y  -7.950
G2 X  72.050 Y  -7.950 I  -1.828 J   1.828
G0 Z   3.000 
F40
G1 Z  -1.500
F100
G2 X  81.950 Y   1.950 I   4.950 J   4.950
G2 X  72.050 Y  -7.950 I  -4.950 J  -4.950
F40
G1 Z  -3.000
F100
G2 X  81.950 Y   1.950 I   4.950 J   4.950
G2 X  72.050 Y  -7.950 I  -4.950 J  -4.950
F40
G1 Z  -4.500
F100
G2 X  81.950 Y   1.950 I   4.950 J   4.950
G2 X  72.050 Y  -7.950 I  -4.950 J  -4.950
F40
G1 Z  -6.000
F100
G2 X  81.950 Y   1.950 I   4.950 J   4.950
G2 X  72.050 Y  -7.950 I  -4.950 J  -4.950
F40
G1 Z   3.000
G0 Z  15.000 
G40

(* SHAPE Nr: 3 - Trou glissiere L *)
G0 X -75.292 Y   0.122
G42
F100
G1 X -75.706 Y   1.950
G2 X -72.050 Y   1.950 I   1.828 J  -1.828
G0 Z   3.000 
F40
G1 Z  -1.500
F100
G2 X -81.950 Y  -7.950 I  -4.950 J  -4.950
G2 X -72.050 Y   1.950 I   4.950 J   4.950
F40
G1 Z  -3.000
F100
G2 X -81.950 Y  -7.950 I  -4.950 J  -4.950
G2 X -72.050 Y   1.950 I   4.950 J   4.950
F40
G1 Z  -4.500
F100
G2 X -81.950 Y  -7.950 I  -4.950 J  -4.950
G2 X -72.050 Y   1.950 I   4.950 J   4.950
F40
G1 Z  -6.000
F100
G2 X -81.950 Y  -7.950 I  -4.950 J  -4.950
G2 X -72.050 Y   1.950 I   4.950 J   4.950
F40
G1 Z   3.000
G0 Z  15.000 
G40

(* SHAPE Nr: 4 - Contour *)
G0 X -32.515 Y  30.157
G42
F100
G1 X -30.717 Y  30.685
G2 X -30.487 Y  27.037 I  -1.709 J  -1.939
G0 Z   3.000 
F40
G1 Z  -1.500
F100
G1 X -39.018 Y  17.356
G2 X -42.019 Y  16.000 I  -3.001 J   2.644
G1 X -96.937 Y  16.000
G1 X -96.937 Y -22.000
G1 X  96.937 Y -22.000
G1 X  96.937 Y  16.000
G1 X  43.146 Y  16.000
G2 X  40.314 Y  17.175 I   0.000 J   4.000
G1 X  30.656 Y  26.856
G2 X  30.178 Y  31.928 I   2.832 J   2.825
G1 X  37.380 Y  42.534
G3 X  34.484 Y  48.000 I  -2.896 J   1.966
G1 X -34.484 Y  48.000
G3 X -37.380 Y  42.534 I   0.000 J  -3.500
G1 X -30.178 Y  31.928
G2 X -30.487 Y  27.037 I  -3.309 J  -2.247
F40
G1 Z  -3.000
F100
G1 X -39.018 Y  17.356
G2 X -42.019 Y  16.000 I  -3.001 J   2.644
G1 X -96.937 Y  16.000
G1 X -96.937 Y -22.000
G1 X  96.937 Y -22.000
G1 X  96.937 Y  16.000
G1 X  43.146 Y  16.000
G2 X  40.314 Y  17.175 I   0.000 J   4.000
G1 X  30.656 Y  26.856
G2 X  30.178 Y  31.928 I   2.832 J   2.825
G1 X  37.380 Y  42.534
G3 X  34.484 Y  48.000 I  -2.896 J   1.966
G1 X -34.484 Y  48.000
G3 X -37.380 Y  42.534 I   0.000 J  -3.500
G1 X -30.178 Y  31.928
G2 X -30.487 Y  27.037 I  -3.309 J  -2.247
F40
G1 Z  -4.500
F100
G1 X -39.018 Y  17.356
G2 X -42.019 Y  16.000 I  -3.001 J   2.644
G1 X -96.937 Y  16.000
G1 X -96.937 Y -22.000
G1 X  96.937 Y -22.000
G1 X  96.937 Y  16.000
G1 X  43.146 Y  16.000
G2 X  40.314 Y  17.175 I   0.000 J   4.000
G1 X  30.656 Y  26.856
G2 X  30.178 Y  31.928 I   2.832 J   2.825
G1 X  37.380 Y  42.534
G3 X  34.484 Y  48.000 I  -2.896 J   1.966
G1 X -34.484 Y  48.000
G3 X -37.380 Y  42.534 I   0.000 J  -3.500
G1 X -30.178 Y  31.928
G2 X -30.487 Y  27.037 I  -3.309 J  -2.247
F40
G1 Z  -6.000
F100
G1 X -39.018 Y  17.356
G2 X -42.019 Y  16.000 I  -3.001 J   2.644
G1 X -96.937 Y  16.000
G1 X -96.937 Y -22.000
G1 X  96.937 Y -22.000
G1 X  96.937 Y  16.000
G1 X  43.146 Y  16.000
G2 X  40.314 Y  17.175 I   0.000 J   4.000
G1 X  30.656 Y  26.856
G2 X  30.178 Y  31.928 I   2.832 J   2.825
G1 X  37.380 Y  42.534
G3 X  34.484 Y  48.000 I  -2.896 J   1.966
G1 X -34.484 Y  48.000
G3 X -37.380 Y  42.534 I   0.000 J  -3.500
G1 X -30.178 Y  31.928
G2 X -30.487 Y  27.037 I  -3.309 J  -2.247
F40
G1 Z   3.000
G0 Z  15.000 
G40
M9 M5
G0 X   0.000 Y   0.000
G40 G53 G0 X0 Y0 Z0 M2 (Program end)