(Generated with: DXF2GCODE, Version: PyQt4 Beta, Date: $Date:: 2015-02-04 13:44:52#$)
(Created from file: /home/bp/Documents/Usinages/Pince/export15gear/base servo.dxf)
(Time: Thu Mar 19 00:53:53 2015)
G21 (Units in millimeters) (PLEASE CHECK TOOL WITH EMC2 TOOL TABLE) G90 (Absolute programming) G64 (Default cutting) G17 (XY plane) G40 (Cancel radius comp.) G49 (Cancel length comp.)
G0 Z  15.000 

(*** LAYER: axes ***)
T2 M6
S6000

(* SHAPE Nr: Axe pince #1 *)
G0 X  33.974 Y   0.060
M3 M8
G42
F100
G1 X  34.388 Y  -1.768
G2 X  30.732 Y  -1.768 I  -1.828 J   1.828
G0 Z   3.000 
F40
G1 Z  -1.500
F100
G2 X  34.268 Y   1.768 I   1.768 J   1.768
G2 X  30.732 Y  -1.768 I  -1.768 J  -1.768
F40
G1 Z  -3.000
F100
G2 X  34.268 Y   1.768 I   1.768 J   1.768
G2 X  30.732 Y  -1.768 I  -1.768 J  -1.768
F40
G1 Z  -4.500
F100
G2 X  34.268 Y   1.768 I   1.768 J   1.768
G2 X  30.732 Y  -1.768 I  -1.768 J  -1.768
F40
G1 Z  -6.000
F100
G2 X  34.268 Y   1.768 I   1.768 J   1.768
G2 X  30.732 Y  -1.768 I  -1.768 J  -1.768
F40
G1 Z   3.000
G0 Z  15.000 
G40


(* SHAPE Nr: Axe Guide #1 *)
G0 X  72.464 Y  -8.950
G42
F100
G1 X  72.878 Y -10.778
G2 X  69.222 Y -10.778 I  -1.828 J   1.828
G0 Z   3.000 
F40
G1 Z  -1.500
F100
G2 X  84.778 Y   4.778 I   7.778 J   7.778
G2 X  69.222 Y -10.778 I  -7.778 J  -7.778
F40
G1 Z  -3.000
F100
G2 X  84.778 Y   4.778 I   7.778 J   7.778
G2 X  69.222 Y -10.778 I  -7.778 J  -7.778
F40
G1 Z  -4.500
F100
G2 X  84.778 Y   4.778 I   7.778 J   7.778
G2 X  69.222 Y -10.778 I  -7.778 J  -7.778
F40
G1 Z  -6.000
F100
G2 X  84.778 Y   4.778 I   7.778 J   7.778
G2 X  69.222 Y -10.778 I  -7.778 J  -7.778
F40
G1 Z   3.000
G0 Z  15.000 
G40

(* SHAPE Nr: Axe pince #2 *)
G0 X -72.464 Y   2.950
G42
F100
G1 X -72.878 Y   4.778
G2 X -69.222 Y   4.778 I   1.828 J  -1.828
G0 Z   3.000 
F40
G1 Z  -1.5000
F100
G2 X -84.778 Y -10.778 I  -7.778 J  -7.778
G2 X -69.222 Y   4.778 I   7.778 J   7.778
F40
G1 Z  -3.000
F100
G2 X -84.778 Y -10.778 I  -7.778 J  -7.778
G2 X -69.222 Y   4.778 I   7.778 J   7.778
F40
G1 Z  -4.500
F100
G2 X -84.778 Y -10.778 I  -7.778 J  -7.778
G2 X -69.222 Y   4.778 I   7.778 J   7.778
F40
G1 Z  -6.000
F100
G2 X -84.778 Y -10.778 I  -7.778 J  -7.778
G2 X -69.222 Y   4.778 I   7.778 J   7.778
F40
G1 Z   3.000
G0 Z  15.000 
G40


(* SHAPE Nr: Axe guide #2 *)
G0 X -33.974 Y  -0.060
G42
F100
G1 X -34.388 Y   1.768
G2 X -30.732 Y   1.768 I   1.828 J  -1.828
G0 Z   3.000 
F40
G1 Z  -1.500
F100
G2 X -34.268 Y  -1.768 I  -1.768 J  -1.768
G2 X -30.732 Y   1.768 I   1.768 J   1.768
F40
G1 Z  -3.000
F100
G2 X -34.268 Y  -1.768 I  -1.768 J  -1.768
G2 X -30.732 Y   1.768 I   1.768 J   1.768
F40
G1 Z  -4.500
F100
G2 X -34.268 Y  -1.768 I  -1.768 J  -1.768
G2 X -30.732 Y   1.768 I   1.768 J   1.768
F40
G1 Z  -6.000
F100
G2 X -34.268 Y  -1.768 I  -1.768 J  -1.768
G2 X -30.732 Y   1.768 I   1.768 J   1.768
F40
G1 Z   3.000
G0 Z  15.000 
G40

(* SHAPE Nr: Poche servo *)
G0 X  11.000 Y   2.085
G42
F100
G1 X  12.585 Y   1.085
G2 X  10.000 Y  -1.500 I  -2.585 J   0.000
G0 Z   3.000 
F40
G1 Z  -1.500
F100
G1 X -10.000 Y  -1.500
G1 X -10.000 Y  37.500
G1 X  10.000 Y  37.500
G1 X  10.000 Y  -1.500
F40
G1 Z  -3.000
F100
G1 X -10.000 Y  -1.500
G1 X -10.000 Y  37.500
G1 X  10.000 Y  37.500
G1 X  10.000 Y  -1.500
F40
G1 Z  -4.500
F100
G1 X -10.000 Y  -1.500
G1 X -10.000 Y  37.500
G1 X  10.000 Y  37.500
G1 X  10.000 Y  -1.500
F40
G1 Z  -6.000
F100
G1 X -10.000 Y  -1.500
G1 X -10.000 Y  37.500
G1 X  10.000 Y  37.500
G1 X  10.000 Y  -1.500
F40
G1 Z   3.000
G0 Z  15.000 
G40

(* SHAPE Nr: Contour *)
G0 X  27.254 Y  23.000
G42
F100
G1 X  26.254 Y  21.415
G2 X  23.669 Y  24.000 I   0.000 J   2.585
G0 Z   3.000 
F40
G1 Z  -1.500
F100
G1 X  23.669 Y  42.983
G3 X  18.669 Y  47.983 I  -5.000 J   0.000
G1 X -18.669 Y  47.983
G3 X -23.669 Y  42.983 I   0.000 J  -5.000
G1 X -23.669 Y  24.000
G2 X -31.669 Y  16.000 I  -8.000 J   0.000
G1 X -96.937 Y  16.000
G1 X -96.937 Y -22.000
G1 X  96.937 Y -22.000
G1 X  96.937 Y  16.000
G1 X  31.669 Y  16.000
G2 X  23.669 Y  24.000 I   0.000 J   8.000
F40
G1 Z  -3.000
F100
G1 X  23.669 Y  42.983
G3 X  18.669 Y  47.983 I  -5.000 J   0.000
G1 X -18.669 Y  47.983
G3 X -23.669 Y  42.983 I   0.000 J  -5.000
G1 X -23.669 Y  24.000
G2 X -31.669 Y  16.000 I  -8.000 J   0.000
G1 X -96.937 Y  16.000
G1 X -96.937 Y -22.000
G1 X  96.937 Y -22.000
G1 X  96.937 Y  16.000
G1 X  31.669 Y  16.000
G2 X  23.669 Y  24.000 I   0.000 J   8.000
F40
G1 Z  -4.500
F100
G1 X  23.669 Y  42.983
G3 X  18.669 Y  47.983 I  -5.000 J   0.000
G1 X -18.669 Y  47.983
G3 X -23.669 Y  42.983 I   0.000 J  -5.000
G1 X -23.669 Y  24.000
G2 X -31.669 Y  16.000 I  -8.000 J   0.000
G1 X -96.937 Y  16.000
G1 X -96.937 Y -22.000
G1 X  96.937 Y -22.000
G1 X  96.937 Y  16.000
G1 X  31.669 Y  16.000
G2 X  23.669 Y  24.000 I   0.000 J   8.000
F40
G1 Z  -6.000
F100
G1 X  23.669 Y  42.983
G3 X  18.669 Y  47.983 I  -5.000 J   0.000
G1 X -18.669 Y  47.983
G3 X -23.669 Y  42.983 I   0.000 J  -5.000
G1 X -23.669 Y  24.000
G2 X -31.669 Y  16.000 I  -8.000 J   0.000
G1 X -96.937 Y  16.000
G1 X -96.937 Y -22.000
G1 X  96.937 Y -22.000
G1 X  96.937 Y  16.000
G1 X  31.669 Y  16.000
G2 X  23.669 Y  24.000 I   0.000 J   8.000
F40
G1 Z   3.000
G0 Z  15.000 
G40

M9 M5
G0 X   0.000 Y   0.000
G40 G53 G0 X0 Y0 Z0 M2 (Program end)