(Generated with: DXF2GCODE, Version: PyQt4 Beta, Date: $Date:: 2015-02-04 13:44:52#$)
(Created from file: /home/bp/Documents/Usinages/Pince/export15gear/base_middle_top.dxf)
(Time: Tue Apr  7 00:10:20 2015)
G21 (Units in millimeters) (PLEASE CHECK TOOL WITH EMC2 TOOL TABLE) G90 (Absolute programming) G64 (Default cutting) G17 (XY plane) G40 (Cancel radius comp.) G49 (Cancel length comp.)
G0 Z  15.000 

(*** LAYER: axes ***)
T2 M6
S6000

(* SHAPE Nr: 0 - Axe glissiere R *)
G0 X  72.464 Y  -8.950
M3 M8
G42
F80
G1 X  72.878 Y -10.778
G2 X  69.222 Y -10.778 I  -1.828 J   1.828
G0 Z   3.000 
F40
G1 Z  -2.000
F80
G2 X  84.778 Y   4.778 I   7.778 J   7.778
G2 X  69.222 Y -10.778 I  -7.778 J  -7.778
F40
G1 Z  -4.000
F80
G2 X  84.778 Y   4.778 I   7.778 J   7.778
G2 X  69.222 Y -10.778 I  -7.778 J  -7.778
F40
G1 Z  -6.000
F80
G2 X  84.778 Y   4.778 I   7.778 J   7.778
G2 X  69.222 Y -10.778 I  -7.778 J  -7.778
F40
G1 Z   3.000
G0 Z  15.000 
G40

(* SHAPE Nr: 1 - Fix servo R *)
G0 X  33.974 Y   0.060
G42
F80
G1 X  34.388 Y  -1.768
G2 X  30.732 Y  -1.768 I  -1.828 J   1.828
G0 Z   3.000 
F40
G1 Z  -2.000
F80
G2 X  34.268 Y   1.768 I   1.768 J   1.768
G2 X  30.732 Y  -1.768 I  -1.768 J  -1.768
F40
G1 Z  -4.000
F80
G2 X  34.268 Y   1.768 I   1.768 J   1.768
G2 X  30.732 Y  -1.768 I  -1.768 J  -1.768
F40
G1 Z  -6.000
F80
G2 X  34.268 Y   1.768 I   1.768 J   1.768
G2 X  30.732 Y  -1.768 I  -1.768 J  -1.768
F40
G1 Z   3.000
G0 Z  15.000 
G40

(* SHAPE Nr: 2 - Fix servo L*)
G0 X -33.974 Y  -0.060
G42
F80
G1 X -34.388 Y   1.768
G2 X -30.732 Y   1.768 I   1.828 J  -1.828
G0 Z   3.000 
F40
G1 Z  -2.000
F80
G2 X -34.268 Y  -1.768 I  -1.768 J  -1.768
G2 X -30.732 Y   1.768 I   1.768 J   1.768
F40
G1 Z  -4.000
F80
G2 X -34.268 Y  -1.768 I  -1.768 J  -1.768
G2 X -30.732 Y   1.768 I   1.768 J   1.768
F40
G1 Z  -6.000
F80
G2 X -34.268 Y  -1.768 I  -1.768 J  -1.768
G2 X -30.732 Y   1.768 I   1.768 J   1.768
F40
G1 Z   3.000
G0 Z  15.000 
G40

(* SHAPE Nr: 5 - Clissiere L *)
G0 X -72.464 Y   2.950
G42
F80
G1 X -72.878 Y   4.778
G2 X -69.222 Y   4.778 I   1.828 J  -1.828
G0 Z   3.000 
F40
G1 Z  -2.000
F80
G2 X -84.778 Y -10.778 I  -7.778 J  -7.778
G2 X -69.222 Y   4.778 I   7.778 J   7.778
F40
G1 Z  -4.000
F80
G2 X -84.778 Y -10.778 I  -7.778 J  -7.778
G2 X -69.222 Y   4.778 I   7.778 J   7.778
F40
G1 Z  -6.000
F80
G2 X -84.778 Y -10.778 I  -7.778 J  -7.778
G2 X -69.222 Y   4.778 I   7.778 J   7.778
F40
G1 Z   3.000
G0 Z  15.000 
G40

(* SHAPE Nr: 9 - Poche servo *)
G0 X  11.000 Y   2.085
G42
F80
G1 X  12.585 Y   1.085
G2 X  10.000 Y  -1.500 I  -2.585 J   0.000
G0 Z   3.000 
F40
G1 Z  -2.000
F80
G1 X -10.000 Y  -1.500
G1 X -10.000 Y  37.500
G1 X  10.000 Y  37.500
G1 X  10.000 Y  -1.500
F40
G1 Z  -4.000
F80
G1 X -10.000 Y  -1.500
G1 X -10.000 Y  37.500
G1 X  10.000 Y  37.500
G1 X  10.000 Y  -1.500
F40
G1 Z  -6.000
F80
G1 X -10.000 Y  -1.500
G1 X -10.000 Y  37.500
G1 X  10.000 Y  37.500
G1 X  10.000 Y  -1.500
F40
G1 Z   3.000
G0 Z  15.000 
G40

(* SHAPE Nr: 8 - Contour *)
G0 X -32.438 Y  30.423
G42
F80
G1 X -30.643 Y  30.963
G2 X -30.387 Y  27.316 I  -1.695 J  -1.951
G0 Z   3.000 
F40
G1 Z  -2.000
F80
G1 X -39.022 Y  17.377
G2 X -42.042 Y  16.000 I  -3.020 J   2.623
G1 X -96.937 Y  16.000
G1 X -96.937 Y -22.000
G1 X  96.937 Y -22.000
G1 X  96.937 Y  16.000
G1 X  43.170 Y  16.000
G2 X  40.316 Y  17.197 I   0.000 J   4.000
G1 X  30.553 Y  27.137
G2 X  30.607 Y  32.797 I   2.854 J   2.803
G1 X  40.000 Y  42.000
G3 X  37.551 Y  48.000 I  -2.449 J   2.500
G1 X -37.551 Y  48.000
G3 X -40.000 Y  42.000 I   0.000 J  -3.500
G1 X -30.607 Y  32.797
G2 X -30.387 Y  27.316 I  -2.799 J  -2.857
F40
G1 Z  -4.000
F80
G1 X -39.022 Y  17.377
G2 X -42.042 Y  16.000 I  -3.020 J   2.623
G1 X -96.937 Y  16.000
G1 X -96.937 Y -22.000
G1 X  96.937 Y -22.000
G1 X  96.937 Y  16.000
G1 X  43.170 Y  16.000
G2 X  40.316 Y  17.197 I   0.000 J   4.000
G1 X  30.553 Y  27.137
G2 X  30.607 Y  32.797 I   2.854 J   2.803
G1 X  40.000 Y  42.000
G3 X  37.551 Y  48.000 I  -2.449 J   2.500
G1 X -37.551 Y  48.000
G3 X -40.000 Y  42.000 I   0.000 J  -3.500
G1 X -30.607 Y  32.797
G2 X -30.387 Y  27.316 I  -2.799 J  -2.857
F40
G1 Z  -6.000
F80
G1 X -39.022 Y  17.377
G2 X -42.042 Y  16.000 I  -3.020 J   2.623
G1 X -96.937 Y  16.000
G1 X -96.937 Y -22.000
G1 X  96.937 Y -22.000
G1 X  96.937 Y  16.000
G1 X  43.170 Y  16.000
G2 X  40.316 Y  17.197 I   0.000 J   4.000
G1 X  30.553 Y  27.137
G2 X  30.607 Y  32.797 I   2.854 J   2.803
G1 X  40.000 Y  42.000
G3 X  37.551 Y  48.000 I  -2.449 J   2.500
G1 X -37.551 Y  48.000
G3 X -40.000 Y  42.000 I   0.000 J  -3.500
G1 X -30.607 Y  32.797
G2 X -30.387 Y  27.316 I  -2.799 J  -2.857
F40
G1 Z   3.000
G0 Z  15.000 
G40
M9 M5
G0 X   0.000 Y   0.000
G40 G53 G0 X0 Y0 Z0 M2 (Program end)