(Generated with: DXF2GCODE, Version: PyQt4 Beta, Date: $Date:: 2015-02-04 13:44:52#$)
(Created from file: /home/bp/Documents/Usinages/Pince/export15gear/pince_g_avril.dxf)
(Time: Mon Apr  6 19:10:59 2015)
G21 (Units in millimeters) (PLEASE CHECK TOOL WITH EMC2 TOOL TABLE) G90 (Absolute programming) G64 (Default cutting) G17 (XY plane) G40 (Cancel radius comp.) G49 (Cancel length comp.)
G0 Z  15.000 

(*** LAYER: 0 ***)
T1 M6
S6000

(* SHAPE Nr: 0 - Trou axe *)
G0 X -31.439 Y   0.354
M3 M8
G41
F60
G1 X -30.732 Y   0.354
G3 X -30.732 Y   1.768 I  -0.707 J   0.707
G0 Z   3.000 
F30
G1 Z  -1.500
F60
G3 X -34.268 Y  -1.768 I  -1.768 J  -1.768
G3 X -30.732 Y   1.768 I   1.768 J   1.768
F30
G1 Z  -3.000
F60
G3 X -34.268 Y  -1.768 I  -1.768 J  -1.768
G3 X -30.732 Y   1.768 I   1.768 J   1.768
F30
G1 Z   3.000
G0 Z  15.000 
G40

(* SHAPE Nr: 1 - Fix servo *)
G0 X -38.354 Y  28.939
G41
F60
G1 X -37.646 Y  28.939
G3 X -37.646 Y  30.354 I  -0.707 J   0.707
G0 Z   3.000 
F30
G1 Z  -1.500
F60
G3 X -38.354 Y  29.646 I  -0.354 J  -0.354
G3 X -37.646 Y  30.354 I   0.354 J   0.354
F30
G1 Z  -3.000
F60
G3 X -38.354 Y  29.646 I  -0.354 J  -0.354
G3 X -37.646 Y  30.354 I   0.354 J   0.354
F30
G1 Z   3.000
G0 Z  15.000 
G40

(* SHAPE Nr: 2 - Contour *)
G0 X   1.794 Y  -3.139
G41
F60
G1 X   2.071 Y  -2.488
G3 X   0.770 Y  -1.935 I  -0.927 J  -0.374
G0 Z   3.000 
F30
G1 Z  -1.500
F60
G1 X   0.723 Y  -1.954
G1 X   0.677 Y  -1.972
G1 X   0.630 Y  -1.991
G1 X   0.584 Y  -2.009
G1 X   0.537 Y  -2.027
G1 X   0.490 Y  -2.045
G1 X   0.444 Y  -2.062
G1 X   0.397 Y  -2.080
G1 X   0.350 Y  -2.097
G1 X   0.303 Y  -2.114
G1 X   0.256 Y  -2.131
G1 X   0.209 Y  -2.148
G1 X   0.162 Y  -2.165
G1 X   0.114 Y  -2.181
G1 X   0.067 Y  -2.197
G1 X   0.020 Y  -2.213
G1 X  -0.028 Y  -2.229
G1 X  -0.075 Y  -2.245
G1 X  -0.123 Y  -2.260
G1 X  -0.171 Y  -2.275
G1 X  -0.218 Y  -2.290
G1 X  -0.266 Y  -2.305
G1 X  -0.314 Y  -2.320
G1 X  -0.362 Y  -2.334
G1 X  -0.410 Y  -2.348
G1 X  -0.458 Y  -2.362
G1 X  -0.506 Y  -2.376
G1 X  -0.554 Y  -2.390
G1 X  -0.602 Y  -2.403
G1 X  -0.650 Y  -2.416
G1 X  -0.698 Y  -2.429
G1 X  -0.747 Y  -2.442
G1 X  -0.795 Y  -2.454
G1 X  -0.844 Y  -2.466
G1 X  -0.892 Y  -2.478
G1 X  -0.941 Y  -2.490
G1 X  -0.990 Y  -2.502
G1 X  -1.038 Y  -2.513
G1 X  -1.087 Y  -2.524
G1 X  -1.136 Y  -2.535
G1 X  -1.185 Y  -2.545
G1 X  -1.234 Y  -2.555
G1 X  -1.283 Y  -2.565
G1 X  -1.332 Y  -2.575
G1 X  -1.381 Y  -2.584
G1 X  -1.430 Y  -2.593
G1 X  -1.479 Y  -2.602
G1 X  -1.529 Y  -2.611
G1 X  -1.578 Y  -2.619
G1 X  -1.627 Y  -2.627
G1 X  -1.677 Y  -2.634
G1 X  -1.726 Y  -2.641
G1 X  -1.776 Y  -2.648
G1 X  -1.825 Y  -2.655
G1 X  -1.875 Y  -2.661
G1 X  -1.925 Y  -2.667
G1 X  -1.974 Y  -2.672
G1 X  -2.024 Y  -2.677
G1 X  -2.074 Y  -2.682
G1 X  -2.124 Y  -2.686
G1 X  -2.174 Y  -2.689
G1 X  -2.223 Y  -2.692
G1 X  -2.273 Y  -2.695
G1 X  -2.323 Y  -2.697
G1 X  -2.373 Y  -2.698
G1 X  -2.423 Y  -2.699
G1 X  -2.473 Y  -2.699
G1 X  -3.284 Y  -2.628
G3 X  -4.521 Y  -3.619 I  -0.102 J  -1.139
G2 X  -4.697 Y  -4.788 I -27.979 J   3.619
G3 X  -3.807 Y  -6.100 I   1.127 J  -0.193
G1 X  -3.012 Y  -6.272
G1 X  -2.973 Y  -6.283
G1 X  -2.925 Y  -6.299
G1 X  -2.878 Y  -6.315
G1 X  -2.831 Y  -6.331
G1 X  -2.784 Y  -6.348
G1 X  -2.737 Y  -6.366
G1 X  -2.690 Y  -6.384
G1 X  -2.644 Y  -6.402
G1 X  -2.598 Y  -6.421
G1 X  -2.552 Y  -6.441
G1 X  -2.506 Y  -6.460
G1 X  -2.460 Y  -6.480
G1 X  -2.414 Y  -6.501
G1 X  -2.369 Y  -6.522
G1 X  -2.323 Y  -6.543
G1 X  -2.278 Y  -6.564
G1 X  -2.233 Y  -6.586
G1 X  -2.188 Y  -6.608
G1 X  -2.144 Y  -6.630
G1 X  -2.099 Y  -6.653
G1 X  -2.054 Y  -6.676
G1 X  -2.010 Y  -6.699
G1 X  -1.966 Y  -6.722
G1 X  -1.922 Y  -6.746
G1 X  -1.878 Y  -6.770
G1 X  -1.834 Y  -6.794
G1 X  -1.790 Y  -6.818
G1 X  -1.747 Y  -6.843
G1 X  -1.704 Y  -6.867
G1 X  -1.660 Y  -6.893
G1 X  -1.617 Y  -6.918
G1 X  -1.574 Y  -6.943
G1 X  -1.531 Y  -6.969
G1 X  -1.488 Y  -6.995
G1 X  -1.446 Y  -7.021
G1 X  -1.403 Y  -7.047
G1 X  -1.361 Y  -7.074
G1 X  -1.319 Y  -7.101
G1 X  -1.277 Y  -7.128
G1 X  -1.235 Y  -7.155
G1 X  -1.193 Y  -7.182
G1 X  -1.151 Y  -7.210
G1 X  -1.109 Y  -7.237
G1 X  -1.068 Y  -7.265
G1 X  -1.026 Y  -7.293
G1 X  -0.985 Y  -7.321
G1 X  -0.944 Y  -7.350
G1 X  -0.903 Y  -7.378
G1 X  -0.862 Y  -7.407
G1 X  -0.821 Y  -7.436
G1 X  -0.780 Y  -7.465
G1 X  -0.740 Y  -7.494
G1 X  -0.699 Y  -7.524
G1 X  -0.659 Y  -7.553
G1 X  -0.619 Y  -7.583
G1 X  -0.579 Y  -7.613
G1 X  -0.539 Y  -7.643
G1 X  -0.499 Y  -7.673
G1 X  -0.459 Y  -7.703
G1 X  -0.420 Y  -7.734
G1 X  -0.380 Y  -7.764
G1 X  -0.341 Y  -7.795
G1 X  -0.301 Y  -7.826
G1 X  -0.262 Y  -7.857
G1 X  -0.223 Y  -7.888
G1 X  -0.184 Y  -7.920
G1 X  -0.145 Y  -7.951
G1 X  -0.107 Y  -7.983
G1 X  -0.068 Y  -8.015
G1 X  -0.030 Y  -8.047
G1 X   0.009 Y  -8.079
G1 X   0.047 Y  -8.111
G1 X   0.085 Y  -8.143
G1 X   0.123 Y  -8.176
G1 X   0.161 Y  -8.208
G1 X   0.199 Y  -8.241
G1 X   0.236 Y  -8.274
G1 X   0.274 Y  -8.307
G1 X   0.311 Y  -8.340
G1 X   0.349 Y  -8.373
G1 X   0.386 Y  -8.407
G1 X   0.423 Y  -8.440
G1 X   0.460 Y  -8.474
G1 X   0.497 Y  -8.508
G1 X   0.534 Y  -8.541
G1 X   0.571 Y  -8.575
G1 X   0.607 Y  -8.610
G1 X   0.644 Y  -8.644
G1 X   0.680 Y  -8.678
G1 X   0.716 Y  -8.713
G1 X   0.752 Y  -8.747
G1 X   0.788 Y  -8.782
G1 X   0.824 Y  -8.817
G1 X   0.860 Y  -8.852
G1 X   0.896 Y  -8.887
G1 X   0.931 Y  -8.922
G1 X   0.967 Y  -8.957
G1 X   1.002 Y  -8.992
G1 X   1.037 Y  -9.028
G1 X   1.072 Y  -9.063
G1 X   1.107 Y  -9.099
G1 X   1.142 Y  -9.135
G1 X   1.177 Y  -9.171
G1 X   1.212 Y  -9.207
G1 X   1.246 Y  -9.243
G1 X   1.281 Y  -9.279
G1 X   1.315 Y  -9.315
G2 X   0.687 Y -11.352 I -33.815 J   9.316
G1 X   0.647 Y -11.361
G1 X   0.598 Y -11.371
G1 X   0.550 Y -11.382
G1 X   0.501 Y -11.392
G1 X   0.452 Y -11.402
G1 X   0.403 Y -11.412
G1 X   0.354 Y -11.422
G1 X   0.305 Y -11.431
G1 X   0.255 Y -11.441
G1 X   0.206 Y -11.450
G1 X   0.157 Y -11.459
G1 X   0.108 Y -11.468
G1 X   0.059 Y -11.477
G1 X   0.010 Y -11.486
G1 X  -0.040 Y -11.494
G1 X  -0.089 Y -11.503
G1 X  -0.138 Y -11.511
G1 X  -0.188 Y -11.519
G1 X  -0.237 Y -11.527
G1 X  -0.286 Y -11.535
G1 X  -0.336 Y -11.543
G1 X  -0.385 Y -11.550
G1 X  -0.435 Y -11.557
G1 X  -0.484 Y -11.564
G1 X  -0.534 Y -11.571
G1 X  -0.583 Y -11.578
G1 X  -0.633 Y -11.585
G1 X  -0.682 Y -11.591
G1 X  -0.732 Y -11.598
G1 X  -0.782 Y -11.604
G1 X  -0.831 Y -11.610
G1 X  -0.881 Y -11.615
G1 X  -0.931 Y -11.621
G1 X  -0.980 Y -11.626
G1 X  -1.030 Y -11.632
G1 X  -1.080 Y -11.637
G1 X  -1.130 Y -11.642
G1 X  -1.179 Y -11.646
G1 X  -1.229 Y -11.651
G1 X  -1.279 Y -11.655
G1 X  -1.329 Y -11.660
G1 X  -1.379 Y -11.664
G1 X  -1.428 Y -11.668
G1 X  -1.478 Y -11.671
G1 X  -1.528 Y -11.675
G1 X  -1.578 Y -11.678
G1 X  -1.628 Y -11.681
G1 X  -1.678 Y -11.684
G1 X  -1.728 Y -11.687
G1 X  -1.778 Y -11.689
G1 X  -1.828 Y -11.691
G1 X  -1.878 Y -11.694
G1 X  -1.928 Y -11.696
G1 X  -1.978 Y -11.697
G1 X  -2.028 Y -11.699
G1 X  -2.078 Y -11.700
G1 X  -2.127 Y -11.701
G1 X  -2.177 Y -11.702
G1 X  -2.227 Y -11.703
G1 X  -2.277 Y -11.704
G1 X  -2.327 Y -11.704
G1 X  -2.377 Y -11.704
G1 X  -2.427 Y -11.704
G1 X  -2.477 Y -11.703
G1 X  -2.527 Y -11.703
G1 X  -2.577 Y -11.702
G1 X  -2.627 Y -11.701
G1 X  -2.677 Y -11.700
G1 X  -2.727 Y -11.698
G1 X  -2.777 Y -11.697
G1 X  -2.827 Y -11.695
G1 X  -2.877 Y -11.693
G1 X  -2.927 Y -11.690
G1 X  -2.977 Y -11.688
G1 X  -3.027 Y -11.685
G1 X  -3.077 Y -11.682
G1 X  -3.127 Y -11.678
G1 X  -3.177 Y -11.675
G1 X  -3.227 Y -11.671
G1 X  -3.276 Y -11.667
G1 X  -3.326 Y -11.662
G1 X  -3.376 Y -11.658
G1 X  -3.426 Y -11.653
G1 X  -3.475 Y -11.647
G1 X  -3.525 Y -11.642
G1 X  -3.575 Y -11.636
G1 X  -3.624 Y -11.630
G1 X  -3.674 Y -11.624
G1 X  -3.724 Y -11.617
G1 X  -3.773 Y -11.610
G1 X  -3.823 Y -11.603
G1 X  -3.872 Y -11.595
G1 X  -3.921 Y -11.587
G1 X  -3.971 Y -11.578
G1 X  -4.020 Y -11.570
G1 X  -4.069 Y -11.561
G1 X  -4.118 Y -11.551
G1 X  -4.167 Y -11.541
G1 X  -4.216 Y -11.531
G1 X  -4.265 Y -11.520
G1 X  -4.314 Y -11.509
G1 X  -4.362 Y -11.497
G1 X  -4.411 Y -11.485
G1 X  -4.459 Y -11.472
G1 X  -4.507 Y -11.458
G1 X  -4.555 Y -11.444
G1 X  -4.603 Y -11.429
G1 X  -5.357 Y -11.123
G3 X  -6.831 Y -11.706 I  -0.434 J  -1.058
G2 X  -7.343 Y -12.771 I -25.669 J  11.706
G3 X  -6.880 Y -14.287 I   1.020 J  -0.517
G1 X  -6.171 Y -14.685
G1 X  -6.137 Y -14.708
G1 X  -6.096 Y -14.736
G1 X  -6.055 Y -14.765
G1 X  -6.015 Y -14.795
G1 X  -5.975 Y -14.825
G1 X  -5.936 Y -14.856
G1 X  -5.896 Y -14.887
G1 X  -5.857 Y -14.918
G1 X  -5.819 Y -14.950
G1 X  -5.780 Y -14.982
G1 X  -5.742 Y -15.014
G1 X  -5.705 Y -15.047
G1 X  -5.667 Y -15.080
G1 X  -5.630 Y -15.113
G1 X  -5.593 Y -15.147
G1 X  -5.556 Y -15.180
G1 X  -5.519 Y -15.214
G1 X  -5.483 Y -15.249
G1 X  -5.446 Y -15.283
G1 X  -5.410 Y -15.318
G1 X  -5.375 Y -15.353
G1 X  -5.339 Y -15.388
G1 X  -5.304 Y -15.423
G1 X  -5.269 Y -15.459
G1 X  -5.234 Y -15.495
G1 X  -5.199 Y -15.531
G1 X  -5.164 Y -15.567
G1 X  -5.130 Y -15.603
G1 X  -5.096 Y -15.640
G1 X  -5.062 Y -15.677
G1 X  -5.028 Y -15.713
G1 X  -4.995 Y -15.750
G1 X  -4.961 Y -15.788
G1 X  -4.928 Y -15.825
G1 X  -4.895 Y -15.863
G1 X  -4.862 Y -15.900
G1 X  -4.829 Y -15.938
G1 X  -4.797 Y -15.976
G1 X  -4.765 Y -16.014
G1 X  -4.733 Y -16.052
G1 X  -4.701 Y -16.091
G1 X  -4.669 Y -16.130
G1 X  -4.637 Y -16.168
G1 X  -4.606 Y -16.207
G1 X  -4.574 Y -16.246
G1 X  -4.543 Y -16.285
G1 X  -4.512 Y -16.324
G1 X  -4.481 Y -16.364
G1 X  -4.451 Y -16.403
G1 X  -4.420 Y -16.443
G1 X  -4.390 Y -16.483
G1 X  -4.360 Y -16.523
G1 X  -4.330 Y -16.563
G1 X  -4.300 Y -16.603
G1 X  -4.270 Y -16.643
G1 X  -4.241 Y -16.683
G1 X  -4.212 Y -16.724
G1 X  -4.182 Y -16.765
G1 X  -4.153 Y -16.805
G1 X  -4.124 Y -16.846
G1 X  -4.096 Y -16.887
G1 X  -4.067 Y -16.928
G1 X  -4.039 Y -16.969
G1 X  -4.010 Y -17.010
G1 X  -3.982 Y -17.052
G1 X  -3.954 Y -17.093
G1 X  -3.927 Y -17.135
G1 X  -3.899 Y -17.176
G1 X  -3.871 Y -17.218
G1 X  -3.844 Y -17.260
G1 X  -3.817 Y -17.302
G1 X  -3.790 Y -17.344
G1 X  -3.763 Y -17.386
G1 X  -3.736 Y -17.428
G1 X  -3.710 Y -17.471
G1 X  -3.683 Y -17.513
G1 X  -3.657 Y -17.556
G1 X  -3.631 Y -17.598
G1 X  -3.605 Y -17.641
G1 X  -3.579 Y -17.684
G1 X  -3.553 Y -17.727
G1 X  -3.527 Y -17.770
G1 X  -3.502 Y -17.813
G1 X  -3.477 Y -17.856
G1 X  -3.451 Y -17.899
G1 X  -3.426 Y -17.942
G1 X  -3.401 Y -17.986
G1 X  -3.377 Y -18.029
G1 X  -3.352 Y -18.072
G1 X  -3.328 Y -18.116
G1 X  -3.303 Y -18.160
G1 X  -3.279 Y -18.204
G1 X  -3.255 Y -18.247
G1 X  -3.231 Y -18.291
G1 X  -3.207 Y -18.335
G1 X  -3.184 Y -18.379
G1 X  -3.160 Y -18.424
G1 X  -3.137 Y -18.468
G1 X  -3.114 Y -18.512
G1 X  -3.091 Y -18.556
G1 X  -3.068 Y -18.601
G1 X  -3.045 Y -18.645
G1 X  -3.022 Y -18.690
G1 X  -3.000 Y -18.734
G1 X  -2.977 Y -18.779
G1 X  -2.955 Y -18.824
G1 X  -2.933 Y -18.869
G2 X  -4.133 Y -20.630 I -29.567 J  18.869
G1 X  -4.174 Y -20.626
G1 X  -4.224 Y -20.622
G1 X  -4.273 Y -20.617
G1 X  -4.323 Y -20.613
G1 X  -4.373 Y -20.608
G1 X  -4.423 Y -20.603
G1 X  -4.473 Y -20.598
G1 X  -4.522 Y -20.593
G1 X  -4.572 Y -20.587
G1 X  -4.622 Y -20.582
G1 X  -4.671 Y -20.576
G1 X  -4.721 Y -20.570
G1 X  -4.771 Y -20.564
G1 X  -4.820 Y -20.558
G1 X  -4.870 Y -20.552
G1 X  -4.919 Y -20.545
G1 X  -4.969 Y -20.538
G1 X  -5.019 Y -20.532
G1 X  -5.068 Y -20.525
G1 X  -5.118 Y -20.518
G1 X  -5.167 Y -20.510
G1 X  -5.216 Y -20.503
G1 X  -5.266 Y -20.495
G1 X  -5.315 Y -20.487
G1 X  -5.365 Y -20.480
G1 X  -5.414 Y -20.471
G1 X  -5.463 Y -20.463
G1 X  -5.513 Y -20.455
G1 X  -5.562 Y -20.446
G1 X  -5.611 Y -20.437
G1 X  -5.660 Y -20.428
G1 X  -5.709 Y -20.419
G1 X  -5.758 Y -20.410
G1 X  -5.808 Y -20.401
G1 X  -5.857 Y -20.391
G1 X  -5.906 Y -20.381
G1 X  -5.955 Y -20.371
G1 X  -6.004 Y -20.361
G1 X  -6.053 Y -20.351
G1 X  -6.101 Y -20.340
G1 X  -6.150 Y -20.330
G1 X  -6.199 Y -20.319
G1 X  -6.248 Y -20.308
G1 X  -6.297 Y -20.296
G1 X  -6.345 Y -20.285
G1 X  -6.394 Y -20.274
G1 X  -6.443 Y -20.262
G1 X  -6.491 Y -20.250
G1 X  -6.540 Y -20.238
G1 X  -6.588 Y -20.225
G1 X  -6.636 Y -20.213
G1 X  -6.685 Y -20.200
G1 X  -6.733 Y -20.187
G1 X  -6.781 Y -20.174
G1 X  -6.830 Y -20.161
G1 X  -6.878 Y -20.148
G1 X  -6.926 Y -20.134
G1 X  -6.974 Y -20.120
G1 X  -7.022 Y -20.106
G1 X  -7.070 Y -20.092
G1 X  -7.118 Y -20.077
G1 X  -7.166 Y -20.063
G1 X  -7.213 Y -20.048
G1 X  -7.261 Y -20.033
G1 X  -7.309 Y -20.018
G1 X  -7.356 Y -20.002
G1 X  -7.404 Y -19.986
G1 X  -7.451 Y -19.970
G1 X  -7.498 Y -19.954
G1 X  -7.546 Y -19.938
G1 X  -7.593 Y -19.921
G1 X  -7.640 Y -19.905
G1 X  -7.687 Y -19.888
G1 X  -7.734 Y -19.871
G1 X  -7.781 Y -19.853
G1 X  -7.827 Y -19.835
G1 X  -7.874 Y -19.817
G1 X  -7.921 Y -19.799
G1 X  -7.967 Y -19.781
G1 X  -8.014 Y -19.762
G1 X  -8.060 Y -19.743
G1 X  -8.106 Y -19.724
G1 X  -8.152 Y -19.705
G1 X  -8.198 Y -19.685
G1 X  -8.244 Y -19.665
G1 X  -8.290 Y -19.645
G1 X  -8.335 Y -19.625
G1 X  -8.381 Y -19.604
G1 X  -8.426 Y -19.583
G1 X  -8.471 Y -19.561
G1 X  -8.517 Y -19.540
G1 X  -8.561 Y -19.518
G1 X  -8.606 Y -19.496
G1 X  -8.651 Y -19.473
G1 X  -8.695 Y -19.450
G1 X  -8.740 Y -19.427
G1 X  -8.784 Y -19.404
G1 X  -8.828 Y -19.380
G1 X  -8.871 Y -19.355
G1 X  -8.915 Y -19.331
G1 X  -8.958 Y -19.306
G1 X  -9.001 Y -19.280
G1 X  -9.044 Y -19.254
G1 X  -9.086 Y -19.227
G1 X  -9.128 Y -19.200
G1 X  -9.170 Y -19.173
G1 X  -9.211 Y -19.144
G1 X  -9.841 Y -18.629
G3 X -11.421 Y -18.752 I  -0.726 J  -0.883
G2 X -12.225 Y -19.618 I -21.079 J  18.752
G3 X -12.475 Y -20.016 I   0.823 J  -0.795
G1 X -32.500 Y -20.000
G2 X -52.500 Y   0.000 I   0.000 J  20.000
G1 X -52.500 Y  10.000
G1 X -52.500 Y  22.208
G1 X -52.500 Y  40.000
G1 X -49.775 Y  46.907
G1 X -49.775 Y  80.260
G2 X -35.772 Y 119.933 I  49.775 J   4.740
G1 X -20.000 Y 119.933
G1 X -20.000 Y 114.933
G3 X -11.977 Y  51.051 I  20.000 J -29.933
G1 X -11.977 Y  19.359
G2 X -11.421 Y  18.752 I -20.523 J -19.359
G3 X  -9.841 Y  18.629 I   0.854 J   0.761
G1 X  -9.211 Y  19.144
G1 X  -9.178 Y  19.167
G1 X  -9.136 Y  19.195
G1 X  -9.094 Y  19.222
G1 X  -9.052 Y  19.249
G1 X  -9.009 Y  19.275
G1 X  -8.966 Y  19.301
G1 X  -8.923 Y  19.326
G1 X  -8.880 Y  19.351
G1 X  -8.836 Y  19.375
G1 X  -8.792 Y  19.399
G1 X  -8.748 Y  19.423
G1 X  -8.704 Y  19.446
G1 X  -8.659 Y  19.469
G1 X  -8.615 Y  19.491
G1 X  -8.570 Y  19.514
G1 X  -8.525 Y  19.536
G1 X  -8.480 Y  19.557
G1 X  -8.435 Y  19.579
G1 X  -8.389 Y  19.600
G1 X  -8.344 Y  19.621
G1 X  -8.298 Y  19.641
G1 X  -8.253 Y  19.661
G1 X  -8.207 Y  19.681
G1 X  -8.161 Y  19.701
G1 X  -8.115 Y  19.721
G1 X  -8.069 Y  19.740
G1 X  -8.022 Y  19.759
G1 X  -7.976 Y  19.777
G1 X  -7.930 Y  19.796
G1 X  -7.883 Y  19.814
G1 X  -7.836 Y  19.832
G1 X  -7.790 Y  19.850
G1 X  -7.743 Y  19.867
G1 X  -7.696 Y  19.884
G1 X  -7.649 Y  19.902
G1 X  -7.602 Y  19.918
G1 X  -7.555 Y  19.935
G1 X  -7.507 Y  19.951
G1 X  -7.460 Y  19.967
G1 X  -7.413 Y  19.983
G1 X  -7.365 Y  19.999
G1 X  -7.318 Y  20.015
G1 X  -7.270 Y  20.030
G1 X  -7.222 Y  20.045
G1 X  -7.175 Y  20.060
G1 X  -7.127 Y  20.075
G1 X  -7.079 Y  20.089
G1 X  -7.031 Y  20.103
G1 X  -6.983 Y  20.117
G1 X  -6.935 Y  20.131
G1 X  -6.887 Y  20.145
G1 X  -6.839 Y  20.158
G1 X  -6.791 Y  20.172
G1 X  -6.742 Y  20.185
G1 X  -6.694 Y  20.198
G1 X  -6.646 Y  20.211
G1 X  -6.597 Y  20.223
G1 X  -6.549 Y  20.235
G1 X  -6.500 Y  20.248
G1 X  -6.452 Y  20.260
G1 X  -6.403 Y  20.271
G1 X  -6.354 Y  20.283
G1 X  -6.306 Y  20.294
G1 X  -6.257 Y  20.306
G1 X  -6.208 Y  20.317
G1 X  -6.160 Y  20.327
G1 X  -6.111 Y  20.338
G1 X  -6.062 Y  20.349
G1 X  -6.013 Y  20.359
G1 X  -5.964 Y  20.369
G1 X  -5.915 Y  20.379
G1 X  -5.866 Y  20.389
G1 X  -5.817 Y  20.399
G1 X  -5.768 Y  20.408
G1 X  -5.719 Y  20.418
G1 X  -5.669 Y  20.427
G1 X  -5.620 Y  20.436
G1 X  -5.571 Y  20.444
G1 X  -5.522 Y  20.453
G1 X  -5.473 Y  20.462
G1 X  -5.423 Y  20.470
G1 X  -5.374 Y  20.478
G1 X  -5.325 Y  20.486
G1 X  -5.275 Y  20.494
G1 X  -5.226 Y  20.501
G1 X  -5.176 Y  20.509
G1 X  -5.127 Y  20.516
G1 X  -5.077 Y  20.523
G1 X  -5.028 Y  20.530
G1 X  -4.978 Y  20.537
G1 X  -4.929 Y  20.544
G1 X  -4.879 Y  20.550
G1 X  -4.830 Y  20.557
G1 X  -4.780 Y  20.563
G1 X  -4.730 Y  20.569
G1 X  -4.681 Y  20.575
G1 X  -4.631 Y  20.581
G1 X  -4.581 Y  20.586
G1 X  -4.532 Y  20.592
G1 X  -4.482 Y  20.597
G1 X  -4.432 Y  20.602
G1 X  -4.382 Y  20.607
G1 X  -4.333 Y  20.612
G1 X  -4.283 Y  20.617
G1 X  -4.233 Y  20.621
G1 X  -4.183 Y  20.625
G1 X  -4.133 Y  20.630
G2 X  -2.933 Y  18.869 I -28.367 J -20.630
G1 X  -2.951 Y  18.832
G1 X  -2.973 Y  18.788
G1 X  -2.995 Y  18.743
G1 X  -3.018 Y  18.698
G1 X  -3.041 Y  18.654
G1 X  -3.063 Y  18.609
G1 X  -3.086 Y  18.565
G1 X  -3.109 Y  18.520
G1 X  -3.133 Y  18.476
G1 X  -3.156 Y  18.432
G1 X  -3.179 Y  18.388
G1 X  -3.203 Y  18.344
G1 X  -3.227 Y  18.300
G1 X  -3.251 Y  18.256
G1 X  -3.275 Y  18.212
G1 X  -3.299 Y  18.168
G1 X  -3.323 Y  18.124
G1 X  -3.347 Y  18.081
G1 X  -3.372 Y  18.037
G1 X  -3.397 Y  17.994
G1 X  -3.422 Y  17.950
G1 X  -3.447 Y  17.907
G1 X  -3.472 Y  17.864
G1 X  -3.497 Y  17.821
G1 X  -3.522 Y  17.778
G1 X  -3.548 Y  17.735
G1 X  -3.574 Y  17.692
G1 X  -3.600 Y  17.649
G1 X  -3.626 Y  17.606
G1 X  -3.652 Y  17.564
G1 X  -3.678 Y  17.521
G1 X  -3.705 Y  17.479
G1 X  -3.731 Y  17.436
G1 X  -3.758 Y  17.394
G1 X  -3.785 Y  17.352
G1 X  -3.812 Y  17.310
G1 X  -3.839 Y  17.268
G1 X  -3.866 Y  17.226
G1 X  -3.894 Y  17.184
G1 X  -3.921 Y  17.143
G1 X  -3.949 Y  17.101
G1 X  -3.977 Y  17.060
G1 X  -4.005 Y  17.018
G1 X  -4.033 Y  16.977
G1 X  -4.062 Y  16.936
G1 X  -4.090 Y  16.895
G1 X  -4.119 Y  16.854
G1 X  -4.148 Y  16.813
G1 X  -4.177 Y  16.772
G1 X  -4.206 Y  16.732
G1 X  -4.235 Y  16.691
G1 X  -4.265 Y  16.651
G1 X  -4.294 Y  16.610
G1 X  -4.324 Y  16.570
G1 X  -4.354 Y  16.530
G1 X  -4.384 Y  16.490
G1 X  -4.415 Y  16.451
G1 X  -4.445 Y  16.411
G1 X  -4.476 Y  16.371
G1 X  -4.506 Y  16.332
G1 X  -4.537 Y  16.293
G1 X  -4.568 Y  16.253
G1 X  -4.600 Y  16.214
G1 X  -4.631 Y  16.176
G1 X  -4.663 Y  16.137
G1 X  -4.694 Y  16.098
G1 X  -4.726 Y  16.060
G1 X  -4.759 Y  16.021
G1 X  -4.791 Y  15.983
G1 X  -4.823 Y  15.945
G1 X  -4.856 Y  15.907
G1 X  -4.889 Y  15.870
G1 X  -4.922 Y  15.832
G1 X  -4.955 Y  15.795
G1 X  -4.988 Y  15.757
G1 X  -5.022 Y  15.720
G1 X  -5.056 Y  15.683
G1 X  -5.090 Y  15.647
G1 X  -5.124 Y  15.610
G1 X  -5.158 Y  15.574
G1 X  -5.192 Y  15.538
G1 X  -5.227 Y  15.502
G1 X  -5.262 Y  15.466
G1 X  -5.297 Y  15.430
G1 X  -5.332 Y  15.395
G1 X  -5.368 Y  15.360
G1 X  -5.404 Y  15.325
G1 X  -5.440 Y  15.290
G1 X  -5.476 Y  15.255
G1 X  -5.512 Y  15.221
G1 X  -5.549 Y  15.187
G1 X  -5.586 Y  15.153
G1 X  -5.623 Y  15.119
G1 X  -5.660 Y  15.086
G1 X  -5.697 Y  15.053
G1 X  -5.735 Y  15.020
G1 X  -5.773 Y  14.988
G1 X  -5.812 Y  14.956
G1 X  -5.850 Y  14.924
G1 X  -5.889 Y  14.893
G1 X  -5.928 Y  14.861
G1 X  -5.968 Y  14.831
G1 X  -6.007 Y  14.801
G1 X  -6.048 Y  14.771
G1 X  -6.088 Y  14.742
G1 X  -6.129 Y  14.713
G1 X  -6.171 Y  14.685
G1 X  -6.880 Y  14.287
G3 X  -7.343 Y  12.771 I   0.557 J  -0.999
G2 X  -6.831 Y  11.706 I -25.157 J -12.771
G3 X  -5.357 Y  11.123 I   1.040 J   0.475
G1 X  -4.603 Y  11.429
G1 X  -4.564 Y  11.441
G1 X  -4.516 Y  11.456
G1 X  -4.468 Y  11.469
G1 X  -4.420 Y  11.482
G1 X  -4.371 Y  11.495
G1 X  -4.323 Y  11.507
G1 X  -4.274 Y  11.518
G1 X  -4.225 Y  11.529
G1 X  -4.176 Y  11.539
G1 X  -4.127 Y  11.549
G1 X  -4.078 Y  11.559
G1 X  -4.029 Y  11.568
G1 X  -3.980 Y  11.577
G1 X  -3.931 Y  11.585
G1 X  -3.881 Y  11.593
G1 X  -3.832 Y  11.601
G1 X  -3.782 Y  11.608
G1 X  -3.733 Y  11.616
G1 X  -3.683 Y  11.622
G1 X  -3.634 Y  11.629
G1 X  -3.584 Y  11.635
G1 X  -3.535 Y  11.641
G1 X  -3.485 Y  11.646
G1 X  -3.435 Y  11.652
G1 X  -3.385 Y  11.657
G1 X  -3.336 Y  11.661
G1 X  -3.286 Y  11.666
G1 X  -3.236 Y  11.670
G1 X  -3.186 Y  11.674
G1 X  -3.136 Y  11.678
G1 X  -3.086 Y  11.681
G1 X  -3.037 Y  11.684
G1 X  -2.987 Y  11.687
G1 X  -2.937 Y  11.690
G1 X  -2.887 Y  11.692
G1 X  -2.837 Y  11.695
G1 X  -2.787 Y  11.696
G1 X  -2.737 Y  11.698
G1 X  -2.687 Y  11.700
G1 X  -2.637 Y  11.701
G1 X  -2.587 Y  11.702
G1 X  -2.537 Y  11.703
G1 X  -2.487 Y  11.703
G1 X  -2.437 Y  11.704
G1 X  -2.387 Y  11.704
G1 X  -2.337 Y  11.704
G1 X  -2.287 Y  11.704
G1 X  -2.237 Y  11.703
G1 X  -2.187 Y  11.702
G1 X  -2.137 Y  11.702
G1 X  -2.087 Y  11.700
G1 X  -2.037 Y  11.699
G1 X  -1.987 Y  11.698
G1 X  -1.937 Y  11.696
G1 X  -1.887 Y  11.694
G1 X  -1.837 Y  11.692
G1 X  -1.787 Y  11.690
G1 X  -1.737 Y  11.687
G1 X  -1.687 Y  11.684
G1 X  -1.637 Y  11.682
G1 X  -1.587 Y  11.679
G1 X  -1.538 Y  11.675
G1 X  -1.488 Y  11.672
G1 X  -1.438 Y  11.668
G1 X  -1.388 Y  11.664
G1 X  -1.338 Y  11.660
G1 X  -1.288 Y  11.656
G1 X  -1.238 Y  11.652
G1 X  -1.189 Y  11.647
G1 X  -1.139 Y  11.643
G1 X  -1.089 Y  11.638
G1 X  -1.039 Y  11.633
G1 X  -0.990 Y  11.627
G1 X  -0.940 Y  11.622
G1 X  -0.890 Y  11.616
G1 X  -0.841 Y  11.611
G1 X  -0.791 Y  11.605
G1 X  -0.741 Y  11.599
G1 X  -0.692 Y  11.592
G1 X  -0.642 Y  11.586
G1 X  -0.593 Y  11.579
G1 X  -0.543 Y  11.573
G1 X  -0.494 Y  11.566
G1 X  -0.444 Y  11.559
G1 X  -0.395 Y  11.551
G1 X  -0.345 Y  11.544
G1 X  -0.296 Y  11.536
G1 X  -0.246 Y  11.529
G1 X  -0.197 Y  11.521
G1 X  -0.148 Y  11.513
G1 X  -0.098 Y  11.504
G1 X  -0.049 Y  11.496
G1 X   0.000 Y  11.488
G1 X   0.050 Y  11.479
G1 X   0.099 Y  11.470
G1 X   0.148 Y  11.461
G1 X   0.197 Y  11.452
G1 X   0.246 Y  11.443
G1 X   0.295 Y  11.433
G1 X   0.344 Y  11.423
G1 X   0.393 Y  11.414
G1 X   0.442 Y  11.404
G1 X   0.491 Y  11.394
G1 X   0.540 Y  11.383
G1 X   0.589 Y  11.373
G1 X   0.638 Y  11.363
G1 X   0.687 Y  11.352
G2 X   1.315 Y   9.315 I -33.187 J -11.352
G1 X   1.287 Y   9.286
G1 X   1.253 Y   9.250
G1 X   1.218 Y   9.214
G1 X   1.184 Y   9.178
G1 X   1.149 Y   9.142
G1 X   1.114 Y   9.106
G1 X   1.079 Y   9.070
G1 X   1.044 Y   9.035
G1 X   1.009 Y   8.999
G1 X   0.973 Y   8.964
G1 X   0.938 Y   8.928
G1 X   0.902 Y   8.893
G1 X   0.867 Y   8.858
G1 X   0.831 Y   8.823
G1 X   0.795 Y   8.788
G1 X   0.759 Y   8.754
G1 X   0.723 Y   8.719
G1 X   0.687 Y   8.685
G1 X   0.650 Y   8.650
G1 X   0.614 Y   8.616
G1 X   0.577 Y   8.582
G1 X   0.541 Y   8.548
G1 X   0.504 Y   8.514
G1 X   0.467 Y   8.480
G1 X   0.430 Y   8.447
G1 X   0.393 Y   8.413
G1 X   0.356 Y   8.380
G1 X   0.319 Y   8.346
G1 X   0.281 Y   8.313
G1 X   0.244 Y   8.280
G1 X   0.206 Y   8.247
G1 X   0.168 Y   8.215
G1 X   0.130 Y   8.182
G1 X   0.092 Y   8.149
G1 X   0.054 Y   8.117
G1 X   0.016 Y   8.085
G1 X  -0.022 Y   8.053
G1 X  -0.061 Y   8.021
G1 X  -0.099 Y   7.989
G1 X  -0.138 Y   7.957
G1 X  -0.177 Y   7.926
G1 X  -0.216 Y   7.894
G1 X  -0.255 Y   7.863
G1 X  -0.294 Y   7.832
G1 X  -0.333 Y   7.801
G1 X  -0.373 Y   7.770
G1 X  -0.412 Y   7.740
G1 X  -0.452 Y   7.709
G1 X  -0.491 Y   7.679
G1 X  -0.531 Y   7.648
G1 X  -0.571 Y   7.618
G1 X  -0.611 Y   7.588
G1 X  -0.652 Y   7.559
G1 X  -0.692 Y   7.529
G1 X  -0.732 Y   7.500
G1 X  -0.773 Y   7.470
G1 X  -0.813 Y   7.441
G1 X  -0.854 Y   7.412
G1 X  -0.895 Y   7.384
G1 X  -0.936 Y   7.355
G1 X  -0.977 Y   7.327
G1 X  -1.019 Y   7.298
G1 X  -1.060 Y   7.270
G1 X  -1.101 Y   7.242
G1 X  -1.143 Y   7.215
G1 X  -1.185 Y   7.187
G1 X  -1.227 Y   7.160
G1 X  -1.269 Y   7.133
G1 X  -1.311 Y   7.106
G1 X  -1.353 Y   7.079
G1 X  -1.395 Y   7.052
G1 X  -1.438 Y   7.026
G1 X  -1.480 Y   7.000
G1 X  -1.523 Y   6.974
G1 X  -1.566 Y   6.948
G1 X  -1.609 Y   6.923
G1 X  -1.652 Y   6.897
G1 X  -1.695 Y   6.872
G1 X  -1.739 Y   6.847
G1 X  -1.782 Y   6.823
G1 X  -1.826 Y   6.798
G1 X  -1.870 Y   6.774
G1 X  -1.914 Y   6.750
G1 X  -1.958 Y   6.726
G1 X  -2.002 Y   6.703
G1 X  -2.046 Y   6.680
G1 X  -2.090 Y   6.657
G1 X  -2.135 Y   6.634
G1 X  -2.180 Y   6.612
G1 X  -2.225 Y   6.590
G1 X  -2.270 Y   6.568
G1 X  -2.315 Y   6.547
G1 X  -2.360 Y   6.525
G1 X  -2.406 Y   6.505
G1 X  -2.451 Y   6.484
G1 X  -2.497 Y   6.464
G1 X  -2.543 Y   6.444
G1 X  -2.589 Y   6.425
G1 X  -2.635 Y   6.406
G1 X  -2.682 Y   6.387
G1 X  -2.728 Y   6.369
G1 X  -2.775 Y   6.351
G1 X  -2.822 Y   6.334
G1 X  -2.869 Y   6.318
G1 X  -2.916 Y   6.302
G1 X  -2.964 Y   6.286
G1 X  -3.012 Y   6.272
G1 X  -3.807 Y   6.100
G3 X  -4.697 Y   4.788 I   0.238 J  -1.119
G2 X  -4.521 Y   3.619 I -27.803 J  -4.788
G3 X  -3.284 Y   2.628 I   1.134 J   0.148
G1 X  -2.473 Y   2.699
G1 X  -2.433 Y   2.699
G1 X  -2.383 Y   2.698
G1 X  -2.333 Y   2.697
G1 X  -2.283 Y   2.695
G1 X  -2.233 Y   2.693
G1 X  -2.183 Y   2.690
G1 X  -2.133 Y   2.686
G1 X  -2.083 Y   2.682
G1 X  -2.033 Y   2.678
G1 X  -1.984 Y   2.673
G1 X  -1.934 Y   2.668
G1 X  -1.884 Y   2.662
G1 X  -1.835 Y   2.656
G1 X  -1.785 Y   2.650
G1 X  -1.736 Y   2.643
G1 X  -1.686 Y   2.636
G1 X  -1.637 Y   2.628
G1 X  -1.587 Y   2.620
G1 X  -1.538 Y   2.612
G1 X  -1.489 Y   2.604
G1 X  -1.439 Y   2.595
G1 X  -1.390 Y   2.586
G1 X  -1.341 Y   2.577
G1 X  -1.292 Y   2.567
G1 X  -1.243 Y   2.557
G1 X  -1.194 Y   2.547
G1 X  -1.145 Y   2.537
G1 X  -1.096 Y   2.526
G1 X  -1.048 Y   2.515
G1 X  -0.999 Y   2.504
G1 X  -0.950 Y   2.492
G1 X  -0.902 Y   2.481
G1 X  -0.853 Y   2.469
G1 X  -0.804 Y   2.457
G1 X  -0.756 Y   2.444
G1 X  -0.708 Y   2.432
G1 X  -0.659 Y   2.419
G1 X  -0.611 Y   2.406
G1 X  -0.563 Y   2.392
G1 X  -0.515 Y   2.379
G1 X  -0.467 Y   2.365
G1 X  -0.419 Y   2.351
G1 X  -0.371 Y   2.337
G1 X  -0.323 Y   2.323
G1 X  -0.275 Y   2.308
G1 X  -0.227 Y   2.293
G1 X  -0.180 Y   2.278
G1 X  -0.132 Y   2.263
G1 X  -0.084 Y   2.248
G1 X  -0.037 Y   2.232
G1 X   0.011 Y   2.216
G1 X   0.058 Y   2.200
G1 X   0.105 Y   2.184
G1 X   0.153 Y   2.168
G1 X   0.200 Y   2.151
G1 X   0.247 Y   2.134
G1 X   0.294 Y   2.118
G1 X   0.341 Y   2.100
G1 X   0.388 Y   2.083
G1 X   0.435 Y   2.066
G1 X   0.481 Y   2.048
G1 X   0.528 Y   2.030
G1 X   0.575 Y   2.012
G1 X   0.621 Y   1.994
G1 X   0.668 Y   1.976
G1 X   0.714 Y   1.957
G1 X   0.761 Y   1.939
G1 X   0.807 Y   1.920
G1 X   0.853 Y   1.901
G1 X   0.900 Y   1.882
G1 X   0.946 Y   1.862
G1 X   0.992 Y   1.843
G1 X   1.038 Y   1.823
G1 X   1.084 Y   1.803
G1 X   1.129 Y   1.783
G1 X   1.175 Y   1.763
G1 X   1.221 Y   1.743
G1 X   1.266 Y   1.722
G1 X   1.312 Y   1.702
G1 X   1.358 Y   1.681
G1 X   1.403 Y   1.660
G1 X   1.448 Y   1.639
G1 X   1.494 Y   1.618
G1 X   1.539 Y   1.596
G1 X   1.584 Y   1.575
G1 X   1.629 Y   1.553
G1 X   1.674 Y   1.531
G1 X   1.719 Y   1.509
G1 X   1.764 Y   1.487
G1 X   1.808 Y   1.465
G1 X   1.853 Y   1.443
G1 X   1.898 Y   1.420
G1 X   1.942 Y   1.398
G1 X   1.987 Y   1.375
G1 X   2.031 Y   1.352
G1 X   2.076 Y   1.329
G1 X   2.120 Y   1.305
G1 X   2.164 Y   1.282
G1 X   2.208 Y   1.259
G1 X   2.252 Y   1.235
G1 X   2.296 Y   1.211
G1 X   2.340 Y   1.187
G1 X   2.384 Y   1.163
G1 X   2.428 Y   1.139
G1 X   2.471 Y   1.115
G1 X   2.515 Y   1.090
G1 X   2.559 Y   1.066
G2 X   2.559 Y  -1.066 I -35.059 J  -1.066
G1 X   2.523 Y  -1.086
G1 X   2.480 Y  -1.110
G1 X   2.436 Y  -1.134
G1 X   2.392 Y  -1.159
G1 X   2.348 Y  -1.183
G1 X   2.305 Y  -1.207
G1 X   2.261 Y  -1.230
G1 X   2.217 Y  -1.254
G1 X   2.172 Y  -1.278
G1 X   2.128 Y  -1.301
G1 X   2.084 Y  -1.324
G1 X   2.040 Y  -1.347
G1 X   1.995 Y  -1.370
G1 X   1.951 Y  -1.393
G1 X   1.906 Y  -1.416
G1 X   1.862 Y  -1.438
G1 X   1.817 Y  -1.461
G1 X   1.772 Y  -1.483
G1 X   1.727 Y  -1.505
G1 X   1.682 Y  -1.527
G1 X   1.637 Y  -1.549
G1 X   1.592 Y  -1.571
G1 X   1.547 Y  -1.592
G1 X   1.502 Y  -1.614
G1 X   1.457 Y  -1.635
G1 X   1.412 Y  -1.656
G1 X   1.366 Y  -1.677
G1 X   1.321 Y  -1.698
G1 X   1.275 Y  -1.718
G1 X   1.229 Y  -1.739
G1 X   1.184 Y  -1.759
G1 X   1.138 Y  -1.779
G1 X   1.092 Y  -1.799
G1 X   1.046 Y  -1.819
G1 X   1.000 Y  -1.839
G1 X   0.954 Y  -1.859
G1 X   0.908 Y  -1.878
G1 X   0.862 Y  -1.897
G1 X   0.816 Y  -1.916
G1 X   0.770 Y  -1.935
F30
G1 Z  -3.000
F60
G1 X   0.723 Y  -1.954
G1 X   0.677 Y  -1.972
G1 X   0.630 Y  -1.991
G1 X   0.584 Y  -2.009
G1 X   0.537 Y  -2.027
G1 X   0.490 Y  -2.045
G1 X   0.444 Y  -2.062
G1 X   0.397 Y  -2.080
G1 X   0.350 Y  -2.097
G1 X   0.303 Y  -2.114
G1 X   0.256 Y  -2.131
G1 X   0.209 Y  -2.148
G1 X   0.162 Y  -2.165
G1 X   0.114 Y  -2.181
G1 X   0.067 Y  -2.197
G1 X   0.020 Y  -2.213
G1 X  -0.028 Y  -2.229
G1 X  -0.075 Y  -2.245
G1 X  -0.123 Y  -2.260
G1 X  -0.171 Y  -2.275
G1 X  -0.218 Y  -2.290
G1 X  -0.266 Y  -2.305
G1 X  -0.314 Y  -2.320
G1 X  -0.362 Y  -2.334
G1 X  -0.410 Y  -2.348
G1 X  -0.458 Y  -2.362
G1 X  -0.506 Y  -2.376
G1 X  -0.554 Y  -2.390
G1 X  -0.602 Y  -2.403
G1 X  -0.650 Y  -2.416
G1 X  -0.698 Y  -2.429
G1 X  -0.747 Y  -2.442
G1 X  -0.795 Y  -2.454
G1 X  -0.844 Y  -2.466
G1 X  -0.892 Y  -2.478
G1 X  -0.941 Y  -2.490
G1 X  -0.990 Y  -2.502
G1 X  -1.038 Y  -2.513
G1 X  -1.087 Y  -2.524
G1 X  -1.136 Y  -2.535
G1 X  -1.185 Y  -2.545
G1 X  -1.234 Y  -2.555
G1 X  -1.283 Y  -2.565
G1 X  -1.332 Y  -2.575
G1 X  -1.381 Y  -2.584
G1 X  -1.430 Y  -2.593
G1 X  -1.479 Y  -2.602
G1 X  -1.529 Y  -2.611
G1 X  -1.578 Y  -2.619
G1 X  -1.627 Y  -2.627
G1 X  -1.677 Y  -2.634
G1 X  -1.726 Y  -2.641
G1 X  -1.776 Y  -2.648
G1 X  -1.825 Y  -2.655
G1 X  -1.875 Y  -2.661
G1 X  -1.925 Y  -2.667
G1 X  -1.974 Y  -2.672
G1 X  -2.024 Y  -2.677
G1 X  -2.074 Y  -2.682
G1 X  -2.124 Y  -2.686
G1 X  -2.174 Y  -2.689
G1 X  -2.223 Y  -2.692
G1 X  -2.273 Y  -2.695
G1 X  -2.323 Y  -2.697
G1 X  -2.373 Y  -2.698
G1 X  -2.423 Y  -2.699
G1 X  -2.473 Y  -2.699
G1 X  -3.284 Y  -2.628
G3 X  -4.521 Y  -3.619 I  -0.102 J  -1.139
G2 X  -4.697 Y  -4.788 I -27.979 J   3.619
G3 X  -3.807 Y  -6.100 I   1.127 J  -0.193
G1 X  -3.012 Y  -6.272
G1 X  -2.973 Y  -6.283
G1 X  -2.925 Y  -6.299
G1 X  -2.878 Y  -6.315
G1 X  -2.831 Y  -6.331
G1 X  -2.784 Y  -6.348
G1 X  -2.737 Y  -6.366
G1 X  -2.690 Y  -6.384
G1 X  -2.644 Y  -6.402
G1 X  -2.598 Y  -6.421
G1 X  -2.552 Y  -6.441
G1 X  -2.506 Y  -6.460
G1 X  -2.460 Y  -6.480
G1 X  -2.414 Y  -6.501
G1 X  -2.369 Y  -6.522
G1 X  -2.323 Y  -6.543
G1 X  -2.278 Y  -6.564
G1 X  -2.233 Y  -6.586
G1 X  -2.188 Y  -6.608
G1 X  -2.144 Y  -6.630
G1 X  -2.099 Y  -6.653
G1 X  -2.054 Y  -6.676
G1 X  -2.010 Y  -6.699
G1 X  -1.966 Y  -6.722
G1 X  -1.922 Y  -6.746
G1 X  -1.878 Y  -6.770
G1 X  -1.834 Y  -6.794
G1 X  -1.790 Y  -6.818
G1 X  -1.747 Y  -6.843
G1 X  -1.704 Y  -6.867
G1 X  -1.660 Y  -6.893
G1 X  -1.617 Y  -6.918
G1 X  -1.574 Y  -6.943
G1 X  -1.531 Y  -6.969
G1 X  -1.488 Y  -6.995
G1 X  -1.446 Y  -7.021
G1 X  -1.403 Y  -7.047
G1 X  -1.361 Y  -7.074
G1 X  -1.319 Y  -7.101
G1 X  -1.277 Y  -7.128
G1 X  -1.235 Y  -7.155
G1 X  -1.193 Y  -7.182
G1 X  -1.151 Y  -7.210
G1 X  -1.109 Y  -7.237
G1 X  -1.068 Y  -7.265
G1 X  -1.026 Y  -7.293
G1 X  -0.985 Y  -7.321
G1 X  -0.944 Y  -7.350
G1 X  -0.903 Y  -7.378
G1 X  -0.862 Y  -7.407
G1 X  -0.821 Y  -7.436
G1 X  -0.780 Y  -7.465
G1 X  -0.740 Y  -7.494
G1 X  -0.699 Y  -7.524
G1 X  -0.659 Y  -7.553
G1 X  -0.619 Y  -7.583
G1 X  -0.579 Y  -7.613
G1 X  -0.539 Y  -7.643
G1 X  -0.499 Y  -7.673
G1 X  -0.459 Y  -7.703
G1 X  -0.420 Y  -7.734
G1 X  -0.380 Y  -7.764
G1 X  -0.341 Y  -7.795
G1 X  -0.301 Y  -7.826
G1 X  -0.262 Y  -7.857
G1 X  -0.223 Y  -7.888
G1 X  -0.184 Y  -7.920
G1 X  -0.145 Y  -7.951
G1 X  -0.107 Y  -7.983
G1 X  -0.068 Y  -8.015
G1 X  -0.030 Y  -8.047
G1 X   0.009 Y  -8.079
G1 X   0.047 Y  -8.111
G1 X   0.085 Y  -8.143
G1 X   0.123 Y  -8.176
G1 X   0.161 Y  -8.208
G1 X   0.199 Y  -8.241
G1 X   0.236 Y  -8.274
G1 X   0.274 Y  -8.307
G1 X   0.311 Y  -8.340
G1 X   0.349 Y  -8.373
G1 X   0.386 Y  -8.407
G1 X   0.423 Y  -8.440
G1 X   0.460 Y  -8.474
G1 X   0.497 Y  -8.508
G1 X   0.534 Y  -8.541
G1 X   0.571 Y  -8.575
G1 X   0.607 Y  -8.610
G1 X   0.644 Y  -8.644
G1 X   0.680 Y  -8.678
G1 X   0.716 Y  -8.713
G1 X   0.752 Y  -8.747
G1 X   0.788 Y  -8.782
G1 X   0.824 Y  -8.817
G1 X   0.860 Y  -8.852
G1 X   0.896 Y  -8.887
G1 X   0.931 Y  -8.922
G1 X   0.967 Y  -8.957
G1 X   1.002 Y  -8.992
G1 X   1.037 Y  -9.028
G1 X   1.072 Y  -9.063
G1 X   1.107 Y  -9.099
G1 X   1.142 Y  -9.135
G1 X   1.177 Y  -9.171
G1 X   1.212 Y  -9.207
G1 X   1.246 Y  -9.243
G1 X   1.281 Y  -9.279
G1 X   1.315 Y  -9.315
G2 X   0.687 Y -11.352 I -33.815 J   9.316
G1 X   0.647 Y -11.361
G1 X   0.598 Y -11.371
G1 X   0.550 Y -11.382
G1 X   0.501 Y -11.392
G1 X   0.452 Y -11.402
G1 X   0.403 Y -11.412
G1 X   0.354 Y -11.422
G1 X   0.305 Y -11.431
G1 X   0.255 Y -11.441
G1 X   0.206 Y -11.450
G1 X   0.157 Y -11.459
G1 X   0.108 Y -11.468
G1 X   0.059 Y -11.477
G1 X   0.010 Y -11.486
G1 X  -0.040 Y -11.494
G1 X  -0.089 Y -11.503
G1 X  -0.138 Y -11.511
G1 X  -0.188 Y -11.519
G1 X  -0.237 Y -11.527
G1 X  -0.286 Y -11.535
G1 X  -0.336 Y -11.543
G1 X  -0.385 Y -11.550
G1 X  -0.435 Y -11.557
G1 X  -0.484 Y -11.564
G1 X  -0.534 Y -11.571
G1 X  -0.583 Y -11.578
G1 X  -0.633 Y -11.585
G1 X  -0.682 Y -11.591
G1 X  -0.732 Y -11.598
G1 X  -0.782 Y -11.604
G1 X  -0.831 Y -11.610
G1 X  -0.881 Y -11.615
G1 X  -0.931 Y -11.621
G1 X  -0.980 Y -11.626
G1 X  -1.030 Y -11.632
G1 X  -1.080 Y -11.637
G1 X  -1.130 Y -11.642
G1 X  -1.179 Y -11.646
G1 X  -1.229 Y -11.651
G1 X  -1.279 Y -11.655
G1 X  -1.329 Y -11.660
G1 X  -1.379 Y -11.664
G1 X  -1.428 Y -11.668
G1 X  -1.478 Y -11.671
G1 X  -1.528 Y -11.675
G1 X  -1.578 Y -11.678
G1 X  -1.628 Y -11.681
G1 X  -1.678 Y -11.684
G1 X  -1.728 Y -11.687
G1 X  -1.778 Y -11.689
G1 X  -1.828 Y -11.691
G1 X  -1.878 Y -11.694
G1 X  -1.928 Y -11.696
G1 X  -1.978 Y -11.697
G1 X  -2.028 Y -11.699
G1 X  -2.078 Y -11.700
G1 X  -2.127 Y -11.701
G1 X  -2.177 Y -11.702
G1 X  -2.227 Y -11.703
G1 X  -2.277 Y -11.704
G1 X  -2.327 Y -11.704
G1 X  -2.377 Y -11.704
G1 X  -2.427 Y -11.704
G1 X  -2.477 Y -11.703
G1 X  -2.527 Y -11.703
G1 X  -2.577 Y -11.702
G1 X  -2.627 Y -11.701
G1 X  -2.677 Y -11.700
G1 X  -2.727 Y -11.698
G1 X  -2.777 Y -11.697
G1 X  -2.827 Y -11.695
G1 X  -2.877 Y -11.693
G1 X  -2.927 Y -11.690
G1 X  -2.977 Y -11.688
G1 X  -3.027 Y -11.685
G1 X  -3.077 Y -11.682
G1 X  -3.127 Y -11.678
G1 X  -3.177 Y -11.675
G1 X  -3.227 Y -11.671
G1 X  -3.276 Y -11.667
G1 X  -3.326 Y -11.662
G1 X  -3.376 Y -11.658
G1 X  -3.426 Y -11.653
G1 X  -3.475 Y -11.647
G1 X  -3.525 Y -11.642
G1 X  -3.575 Y -11.636
G1 X  -3.624 Y -11.630
G1 X  -3.674 Y -11.624
G1 X  -3.724 Y -11.617
G1 X  -3.773 Y -11.610
G1 X  -3.823 Y -11.603
G1 X  -3.872 Y -11.595
G1 X  -3.921 Y -11.587
G1 X  -3.971 Y -11.578
G1 X  -4.020 Y -11.570
G1 X  -4.069 Y -11.561
G1 X  -4.118 Y -11.551
G1 X  -4.167 Y -11.541
G1 X  -4.216 Y -11.531
G1 X  -4.265 Y -11.520
G1 X  -4.314 Y -11.509
G1 X  -4.362 Y -11.497
G1 X  -4.411 Y -11.485
G1 X  -4.459 Y -11.472
G1 X  -4.507 Y -11.458
G1 X  -4.555 Y -11.444
G1 X  -4.603 Y -11.429
G1 X  -5.357 Y -11.123
G3 X  -6.831 Y -11.706 I  -0.434 J  -1.058
G2 X  -7.343 Y -12.771 I -25.669 J  11.706
G3 X  -6.880 Y -14.287 I   1.020 J  -0.517
G1 X  -6.171 Y -14.685
G1 X  -6.137 Y -14.708
G1 X  -6.096 Y -14.736
G1 X  -6.055 Y -14.765
G1 X  -6.015 Y -14.795
G1 X  -5.975 Y -14.825
G1 X  -5.936 Y -14.856
G1 X  -5.896 Y -14.887
G1 X  -5.857 Y -14.918
G1 X  -5.819 Y -14.950
G1 X  -5.780 Y -14.982
G1 X  -5.742 Y -15.014
G1 X  -5.705 Y -15.047
G1 X  -5.667 Y -15.080
G1 X  -5.630 Y -15.113
G1 X  -5.593 Y -15.147
G1 X  -5.556 Y -15.180
G1 X  -5.519 Y -15.214
G1 X  -5.483 Y -15.249
G1 X  -5.446 Y -15.283
G1 X  -5.410 Y -15.318
G1 X  -5.375 Y -15.353
G1 X  -5.339 Y -15.388
G1 X  -5.304 Y -15.423
G1 X  -5.269 Y -15.459
G1 X  -5.234 Y -15.495
G1 X  -5.199 Y -15.531
G1 X  -5.164 Y -15.567
G1 X  -5.130 Y -15.603
G1 X  -5.096 Y -15.640
G1 X  -5.062 Y -15.677
G1 X  -5.028 Y -15.713
G1 X  -4.995 Y -15.750
G1 X  -4.961 Y -15.788
G1 X  -4.928 Y -15.825
G1 X  -4.895 Y -15.863
G1 X  -4.862 Y -15.900
G1 X  -4.829 Y -15.938
G1 X  -4.797 Y -15.976
G1 X  -4.765 Y -16.014
G1 X  -4.733 Y -16.052
G1 X  -4.701 Y -16.091
G1 X  -4.669 Y -16.130
G1 X  -4.637 Y -16.168
G1 X  -4.606 Y -16.207
G1 X  -4.574 Y -16.246
G1 X  -4.543 Y -16.285
G1 X  -4.512 Y -16.324
G1 X  -4.481 Y -16.364
G1 X  -4.451 Y -16.403
G1 X  -4.420 Y -16.443
G1 X  -4.390 Y -16.483
G1 X  -4.360 Y -16.523
G1 X  -4.330 Y -16.563
G1 X  -4.300 Y -16.603
G1 X  -4.270 Y -16.643
G1 X  -4.241 Y -16.683
G1 X  -4.212 Y -16.724
G1 X  -4.182 Y -16.765
G1 X  -4.153 Y -16.805
G1 X  -4.124 Y -16.846
G1 X  -4.096 Y -16.887
G1 X  -4.067 Y -16.928
G1 X  -4.039 Y -16.969
G1 X  -4.010 Y -17.010
G1 X  -3.982 Y -17.052
G1 X  -3.954 Y -17.093
G1 X  -3.927 Y -17.135
G1 X  -3.899 Y -17.176
G1 X  -3.871 Y -17.218
G1 X  -3.844 Y -17.260
G1 X  -3.817 Y -17.302
G1 X  -3.790 Y -17.344
G1 X  -3.763 Y -17.386
G1 X  -3.736 Y -17.428
G1 X  -3.710 Y -17.471
G1 X  -3.683 Y -17.513
G1 X  -3.657 Y -17.556
G1 X  -3.631 Y -17.598
G1 X  -3.605 Y -17.641
G1 X  -3.579 Y -17.684
G1 X  -3.553 Y -17.727
G1 X  -3.527 Y -17.770
G1 X  -3.502 Y -17.813
G1 X  -3.477 Y -17.856
G1 X  -3.451 Y -17.899
G1 X  -3.426 Y -17.942
G1 X  -3.401 Y -17.986
G1 X  -3.377 Y -18.029
G1 X  -3.352 Y -18.072
G1 X  -3.328 Y -18.116
G1 X  -3.303 Y -18.160
G1 X  -3.279 Y -18.204
G1 X  -3.255 Y -18.247
G1 X  -3.231 Y -18.291
G1 X  -3.207 Y -18.335
G1 X  -3.184 Y -18.379
G1 X  -3.160 Y -18.424
G1 X  -3.137 Y -18.468
G1 X  -3.114 Y -18.512
G1 X  -3.091 Y -18.556
G1 X  -3.068 Y -18.601
G1 X  -3.045 Y -18.645
G1 X  -3.022 Y -18.690
G1 X  -3.000 Y -18.734
G1 X  -2.977 Y -18.779
G1 X  -2.955 Y -18.824
G1 X  -2.933 Y -18.869
G2 X  -4.133 Y -20.630 I -29.567 J  18.869
G1 X  -4.174 Y -20.626
G1 X  -4.224 Y -20.622
G1 X  -4.273 Y -20.617
G1 X  -4.323 Y -20.613
G1 X  -4.373 Y -20.608
G1 X  -4.423 Y -20.603
G1 X  -4.473 Y -20.598
G1 X  -4.522 Y -20.593
G1 X  -4.572 Y -20.587
G1 X  -4.622 Y -20.582
G1 X  -4.671 Y -20.576
G1 X  -4.721 Y -20.570
G1 X  -4.771 Y -20.564
G1 X  -4.820 Y -20.558
G1 X  -4.870 Y -20.552
G1 X  -4.919 Y -20.545
G1 X  -4.969 Y -20.538
G1 X  -5.019 Y -20.532
G1 X  -5.068 Y -20.525
G1 X  -5.118 Y -20.518
G1 X  -5.167 Y -20.510
G1 X  -5.216 Y -20.503
G1 X  -5.266 Y -20.495
G1 X  -5.315 Y -20.487
G1 X  -5.365 Y -20.480
G1 X  -5.414 Y -20.471
G1 X  -5.463 Y -20.463
G1 X  -5.513 Y -20.455
G1 X  -5.562 Y -20.446
G1 X  -5.611 Y -20.437
G1 X  -5.660 Y -20.428
G1 X  -5.709 Y -20.419
G1 X  -5.758 Y -20.410
G1 X  -5.808 Y -20.401
G1 X  -5.857 Y -20.391
G1 X  -5.906 Y -20.381
G1 X  -5.955 Y -20.371
G1 X  -6.004 Y -20.361
G1 X  -6.053 Y -20.351
G1 X  -6.101 Y -20.340
G1 X  -6.150 Y -20.330
G1 X  -6.199 Y -20.319
G1 X  -6.248 Y -20.308
G1 X  -6.297 Y -20.296
G1 X  -6.345 Y -20.285
G1 X  -6.394 Y -20.274
G1 X  -6.443 Y -20.262
G1 X  -6.491 Y -20.250
G1 X  -6.540 Y -20.238
G1 X  -6.588 Y -20.225
G1 X  -6.636 Y -20.213
G1 X  -6.685 Y -20.200
G1 X  -6.733 Y -20.187
G1 X  -6.781 Y -20.174
G1 X  -6.830 Y -20.161
G1 X  -6.878 Y -20.148
G1 X  -6.926 Y -20.134
G1 X  -6.974 Y -20.120
G1 X  -7.022 Y -20.106
G1 X  -7.070 Y -20.092
G1 X  -7.118 Y -20.077
G1 X  -7.166 Y -20.063
G1 X  -7.213 Y -20.048
G1 X  -7.261 Y -20.033
G1 X  -7.309 Y -20.018
G1 X  -7.356 Y -20.002
G1 X  -7.404 Y -19.986
G1 X  -7.451 Y -19.970
G1 X  -7.498 Y -19.954
G1 X  -7.546 Y -19.938
G1 X  -7.593 Y -19.921
G1 X  -7.640 Y -19.905
G1 X  -7.687 Y -19.888
G1 X  -7.734 Y -19.871
G1 X  -7.781 Y -19.853
G1 X  -7.827 Y -19.835
G1 X  -7.874 Y -19.817
G1 X  -7.921 Y -19.799
G1 X  -7.967 Y -19.781
G1 X  -8.014 Y -19.762
G1 X  -8.060 Y -19.743
G1 X  -8.106 Y -19.724
G1 X  -8.152 Y -19.705
G1 X  -8.198 Y -19.685
G1 X  -8.244 Y -19.665
G1 X  -8.290 Y -19.645
G1 X  -8.335 Y -19.625
G1 X  -8.381 Y -19.604
G1 X  -8.426 Y -19.583
G1 X  -8.471 Y -19.561
G1 X  -8.517 Y -19.540
G1 X  -8.561 Y -19.518
G1 X  -8.606 Y -19.496
G1 X  -8.651 Y -19.473
G1 X  -8.695 Y -19.450
G1 X  -8.740 Y -19.427
G1 X  -8.784 Y -19.404
G1 X  -8.828 Y -19.380
G1 X  -8.871 Y -19.355
G1 X  -8.915 Y -19.331
G1 X  -8.958 Y -19.306
G1 X  -9.001 Y -19.280
G1 X  -9.044 Y -19.254
G1 X  -9.086 Y -19.227
G1 X  -9.128 Y -19.200
G1 X  -9.170 Y -19.173
G1 X  -9.211 Y -19.144
G1 X  -9.841 Y -18.629
G3 X -11.421 Y -18.752 I  -0.726 J  -0.883
G2 X -12.225 Y -19.618 I -21.079 J  18.752
G3 X -12.475 Y -20.016 I   0.823 J  -0.795
G1 X -32.500 Y -20.000
G2 X -52.500 Y   0.000 I   0.000 J  20.000
G1 X -52.500 Y  10.000
G1 X -52.500 Y  22.208
G1 X -52.500 Y  40.000
G1 X -49.775 Y  46.907
G1 X -49.775 Y  80.260
G2 X -35.772 Y 119.933 I  49.775 J   4.740
G1 X -20.000 Y 119.933
G1 X -20.000 Y 114.933
G3 X -11.977 Y  51.051 I  20.000 J -29.933
G1 X -11.977 Y  19.359
G2 X -11.421 Y  18.752 I -20.523 J -19.359
G3 X  -9.841 Y  18.629 I   0.854 J   0.761
G1 X  -9.211 Y  19.144
G1 X  -9.178 Y  19.167
G1 X  -9.136 Y  19.195
G1 X  -9.094 Y  19.222
G1 X  -9.052 Y  19.249
G1 X  -9.009 Y  19.275
G1 X  -8.966 Y  19.301
G1 X  -8.923 Y  19.326
G1 X  -8.880 Y  19.351
G1 X  -8.836 Y  19.375
G1 X  -8.792 Y  19.399
G1 X  -8.748 Y  19.423
G1 X  -8.704 Y  19.446
G1 X  -8.659 Y  19.469
G1 X  -8.615 Y  19.491
G1 X  -8.570 Y  19.514
G1 X  -8.525 Y  19.536
G1 X  -8.480 Y  19.557
G1 X  -8.435 Y  19.579
G1 X  -8.389 Y  19.600
G1 X  -8.344 Y  19.621
G1 X  -8.298 Y  19.641
G1 X  -8.253 Y  19.661
G1 X  -8.207 Y  19.681
G1 X  -8.161 Y  19.701
G1 X  -8.115 Y  19.721
G1 X  -8.069 Y  19.740
G1 X  -8.022 Y  19.759
G1 X  -7.976 Y  19.777
G1 X  -7.930 Y  19.796
G1 X  -7.883 Y  19.814
G1 X  -7.836 Y  19.832
G1 X  -7.790 Y  19.850
G1 X  -7.743 Y  19.867
G1 X  -7.696 Y  19.884
G1 X  -7.649 Y  19.902
G1 X  -7.602 Y  19.918
G1 X  -7.555 Y  19.935
G1 X  -7.507 Y  19.951
G1 X  -7.460 Y  19.967
G1 X  -7.413 Y  19.983
G1 X  -7.365 Y  19.999
G1 X  -7.318 Y  20.015
G1 X  -7.270 Y  20.030
G1 X  -7.222 Y  20.045
G1 X  -7.175 Y  20.060
G1 X  -7.127 Y  20.075
G1 X  -7.079 Y  20.089
G1 X  -7.031 Y  20.103
G1 X  -6.983 Y  20.117
G1 X  -6.935 Y  20.131
G1 X  -6.887 Y  20.145
G1 X  -6.839 Y  20.158
G1 X  -6.791 Y  20.172
G1 X  -6.742 Y  20.185
G1 X  -6.694 Y  20.198
G1 X  -6.646 Y  20.211
G1 X  -6.597 Y  20.223
G1 X  -6.549 Y  20.235
G1 X  -6.500 Y  20.248
G1 X  -6.452 Y  20.260
G1 X  -6.403 Y  20.271
G1 X  -6.354 Y  20.283
G1 X  -6.306 Y  20.294
G1 X  -6.257 Y  20.306
G1 X  -6.208 Y  20.317
G1 X  -6.160 Y  20.327
G1 X  -6.111 Y  20.338
G1 X  -6.062 Y  20.349
G1 X  -6.013 Y  20.359
G1 X  -5.964 Y  20.369
G1 X  -5.915 Y  20.379
G1 X  -5.866 Y  20.389
G1 X  -5.817 Y  20.399
G1 X  -5.768 Y  20.408
G1 X  -5.719 Y  20.418
G1 X  -5.669 Y  20.427
G1 X  -5.620 Y  20.436
G1 X  -5.571 Y  20.444
G1 X  -5.522 Y  20.453
G1 X  -5.473 Y  20.462
G1 X  -5.423 Y  20.470
G1 X  -5.374 Y  20.478
G1 X  -5.325 Y  20.486
G1 X  -5.275 Y  20.494
G1 X  -5.226 Y  20.501
G1 X  -5.176 Y  20.509
G1 X  -5.127 Y  20.516
G1 X  -5.077 Y  20.523
G1 X  -5.028 Y  20.530
G1 X  -4.978 Y  20.537
G1 X  -4.929 Y  20.544
G1 X  -4.879 Y  20.550
G1 X  -4.830 Y  20.557
G1 X  -4.780 Y  20.563
G1 X  -4.730 Y  20.569
G1 X  -4.681 Y  20.575
G1 X  -4.631 Y  20.581
G1 X  -4.581 Y  20.586
G1 X  -4.532 Y  20.592
G1 X  -4.482 Y  20.597
G1 X  -4.432 Y  20.602
G1 X  -4.382 Y  20.607
G1 X  -4.333 Y  20.612
G1 X  -4.283 Y  20.617
G1 X  -4.233 Y  20.621
G1 X  -4.183 Y  20.625
G1 X  -4.133 Y  20.630
G2 X  -2.933 Y  18.869 I -28.367 J -20.630
G1 X  -2.951 Y  18.832
G1 X  -2.973 Y  18.788
G1 X  -2.995 Y  18.743
G1 X  -3.018 Y  18.698
G1 X  -3.041 Y  18.654
G1 X  -3.063 Y  18.609
G1 X  -3.086 Y  18.565
G1 X  -3.109 Y  18.520
G1 X  -3.133 Y  18.476
G1 X  -3.156 Y  18.432
G1 X  -3.179 Y  18.388
G1 X  -3.203 Y  18.344
G1 X  -3.227 Y  18.300
G1 X  -3.251 Y  18.256
G1 X  -3.275 Y  18.212
G1 X  -3.299 Y  18.168
G1 X  -3.323 Y  18.124
G1 X  -3.347 Y  18.081
G1 X  -3.372 Y  18.037
G1 X  -3.397 Y  17.994
G1 X  -3.422 Y  17.950
G1 X  -3.447 Y  17.907
G1 X  -3.472 Y  17.864
G1 X  -3.497 Y  17.821
G1 X  -3.522 Y  17.778
G1 X  -3.548 Y  17.735
G1 X  -3.574 Y  17.692
G1 X  -3.600 Y  17.649
G1 X  -3.626 Y  17.606
G1 X  -3.652 Y  17.564
G1 X  -3.678 Y  17.521
G1 X  -3.705 Y  17.479
G1 X  -3.731 Y  17.436
G1 X  -3.758 Y  17.394
G1 X  -3.785 Y  17.352
G1 X  -3.812 Y  17.310
G1 X  -3.839 Y  17.268
G1 X  -3.866 Y  17.226
G1 X  -3.894 Y  17.184
G1 X  -3.921 Y  17.143
G1 X  -3.949 Y  17.101
G1 X  -3.977 Y  17.060
G1 X  -4.005 Y  17.018
G1 X  -4.033 Y  16.977
G1 X  -4.062 Y  16.936
G1 X  -4.090 Y  16.895
G1 X  -4.119 Y  16.854
G1 X  -4.148 Y  16.813
G1 X  -4.177 Y  16.772
G1 X  -4.206 Y  16.732
G1 X  -4.235 Y  16.691
G1 X  -4.265 Y  16.651
G1 X  -4.294 Y  16.610
G1 X  -4.324 Y  16.570
G1 X  -4.354 Y  16.530
G1 X  -4.384 Y  16.490
G1 X  -4.415 Y  16.451
G1 X  -4.445 Y  16.411
G1 X  -4.476 Y  16.371
G1 X  -4.506 Y  16.332
G1 X  -4.537 Y  16.293
G1 X  -4.568 Y  16.253
G1 X  -4.600 Y  16.214
G1 X  -4.631 Y  16.176
G1 X  -4.663 Y  16.137
G1 X  -4.694 Y  16.098
G1 X  -4.726 Y  16.060
G1 X  -4.759 Y  16.021
G1 X  -4.791 Y  15.983
G1 X  -4.823 Y  15.945
G1 X  -4.856 Y  15.907
G1 X  -4.889 Y  15.870
G1 X  -4.922 Y  15.832
G1 X  -4.955 Y  15.795
G1 X  -4.988 Y  15.757
G1 X  -5.022 Y  15.720
G1 X  -5.056 Y  15.683
G1 X  -5.090 Y  15.647
G1 X  -5.124 Y  15.610
G1 X  -5.158 Y  15.574
G1 X  -5.192 Y  15.538
G1 X  -5.227 Y  15.502
G1 X  -5.262 Y  15.466
G1 X  -5.297 Y  15.430
G1 X  -5.332 Y  15.395
G1 X  -5.368 Y  15.360
G1 X  -5.404 Y  15.325
G1 X  -5.440 Y  15.290
G1 X  -5.476 Y  15.255
G1 X  -5.512 Y  15.221
G1 X  -5.549 Y  15.187
G1 X  -5.586 Y  15.153
G1 X  -5.623 Y  15.119
G1 X  -5.660 Y  15.086
G1 X  -5.697 Y  15.053
G1 X  -5.735 Y  15.020
G1 X  -5.773 Y  14.988
G1 X  -5.812 Y  14.956
G1 X  -5.850 Y  14.924
G1 X  -5.889 Y  14.893
G1 X  -5.928 Y  14.861
G1 X  -5.968 Y  14.831
G1 X  -6.007 Y  14.801
G1 X  -6.048 Y  14.771
G1 X  -6.088 Y  14.742
G1 X  -6.129 Y  14.713
G1 X  -6.171 Y  14.685
G1 X  -6.880 Y  14.287
G3 X  -7.343 Y  12.771 I   0.557 J  -0.999
G2 X  -6.831 Y  11.706 I -25.157 J -12.771
G3 X  -5.357 Y  11.123 I   1.040 J   0.475
G1 X  -4.603 Y  11.429
G1 X  -4.564 Y  11.441
G1 X  -4.516 Y  11.456
G1 X  -4.468 Y  11.469
G1 X  -4.420 Y  11.482
G1 X  -4.371 Y  11.495
G1 X  -4.323 Y  11.507
G1 X  -4.274 Y  11.518
G1 X  -4.225 Y  11.529
G1 X  -4.176 Y  11.539
G1 X  -4.127 Y  11.549
G1 X  -4.078 Y  11.559
G1 X  -4.029 Y  11.568
G1 X  -3.980 Y  11.577
G1 X  -3.931 Y  11.585
G1 X  -3.881 Y  11.593
G1 X  -3.832 Y  11.601
G1 X  -3.782 Y  11.608
G1 X  -3.733 Y  11.616
G1 X  -3.683 Y  11.622
G1 X  -3.634 Y  11.629
G1 X  -3.584 Y  11.635
G1 X  -3.535 Y  11.641
G1 X  -3.485 Y  11.646
G1 X  -3.435 Y  11.652
G1 X  -3.385 Y  11.657
G1 X  -3.336 Y  11.661
G1 X  -3.286 Y  11.666
G1 X  -3.236 Y  11.670
G1 X  -3.186 Y  11.674
G1 X  -3.136 Y  11.678
G1 X  -3.086 Y  11.681
G1 X  -3.037 Y  11.684
G1 X  -2.987 Y  11.687
G1 X  -2.937 Y  11.690
G1 X  -2.887 Y  11.692
G1 X  -2.837 Y  11.695
G1 X  -2.787 Y  11.696
G1 X  -2.737 Y  11.698
G1 X  -2.687 Y  11.700
G1 X  -2.637 Y  11.701
G1 X  -2.587 Y  11.702
G1 X  -2.537 Y  11.703
G1 X  -2.487 Y  11.703
G1 X  -2.437 Y  11.704
G1 X  -2.387 Y  11.704
G1 X  -2.337 Y  11.704
G1 X  -2.287 Y  11.704
G1 X  -2.237 Y  11.703
G1 X  -2.187 Y  11.702
G1 X  -2.137 Y  11.702
G1 X  -2.087 Y  11.700
G1 X  -2.037 Y  11.699
G1 X  -1.987 Y  11.698
G1 X  -1.937 Y  11.696
G1 X  -1.887 Y  11.694
G1 X  -1.837 Y  11.692
G1 X  -1.787 Y  11.690
G1 X  -1.737 Y  11.687
G1 X  -1.687 Y  11.684
G1 X  -1.637 Y  11.682
G1 X  -1.587 Y  11.679
G1 X  -1.538 Y  11.675
G1 X  -1.488 Y  11.672
G1 X  -1.438 Y  11.668
G1 X  -1.388 Y  11.664
G1 X  -1.338 Y  11.660
G1 X  -1.288 Y  11.656
G1 X  -1.238 Y  11.652
G1 X  -1.189 Y  11.647
G1 X  -1.139 Y  11.643
G1 X  -1.089 Y  11.638
G1 X  -1.039 Y  11.633
G1 X  -0.990 Y  11.627
G1 X  -0.940 Y  11.622
G1 X  -0.890 Y  11.616
G1 X  -0.841 Y  11.611
G1 X  -0.791 Y  11.605
G1 X  -0.741 Y  11.599
G1 X  -0.692 Y  11.592
G1 X  -0.642 Y  11.586
G1 X  -0.593 Y  11.579
G1 X  -0.543 Y  11.573
G1 X  -0.494 Y  11.566
G1 X  -0.444 Y  11.559
G1 X  -0.395 Y  11.551
G1 X  -0.345 Y  11.544
G1 X  -0.296 Y  11.536
G1 X  -0.246 Y  11.529
G1 X  -0.197 Y  11.521
G1 X  -0.148 Y  11.513
G1 X  -0.098 Y  11.504
G1 X  -0.049 Y  11.496
G1 X   0.000 Y  11.488
G1 X   0.050 Y  11.479
G1 X   0.099 Y  11.470
G1 X   0.148 Y  11.461
G1 X   0.197 Y  11.452
G1 X   0.246 Y  11.443
G1 X   0.295 Y  11.433
G1 X   0.344 Y  11.423
G1 X   0.393 Y  11.414
G1 X   0.442 Y  11.404
G1 X   0.491 Y  11.394
G1 X   0.540 Y  11.383
G1 X   0.589 Y  11.373
G1 X   0.638 Y  11.363
G1 X   0.687 Y  11.352
G2 X   1.315 Y   9.315 I -33.187 J -11.352
G1 X   1.287 Y   9.286
G1 X   1.253 Y   9.250
G1 X   1.218 Y   9.214
G1 X   1.184 Y   9.178
G1 X   1.149 Y   9.142
G1 X   1.114 Y   9.106
G1 X   1.079 Y   9.070
G1 X   1.044 Y   9.035
G1 X   1.009 Y   8.999
G1 X   0.973 Y   8.964
G1 X   0.938 Y   8.928
G1 X   0.902 Y   8.893
G1 X   0.867 Y   8.858
G1 X   0.831 Y   8.823
G1 X   0.795 Y   8.788
G1 X   0.759 Y   8.754
G1 X   0.723 Y   8.719
G1 X   0.687 Y   8.685
G1 X   0.650 Y   8.650
G1 X   0.614 Y   8.616
G1 X   0.577 Y   8.582
G1 X   0.541 Y   8.548
G1 X   0.504 Y   8.514
G1 X   0.467 Y   8.480
G1 X   0.430 Y   8.447
G1 X   0.393 Y   8.413
G1 X   0.356 Y   8.380
G1 X   0.319 Y   8.346
G1 X   0.281 Y   8.313
G1 X   0.244 Y   8.280
G1 X   0.206 Y   8.247
G1 X   0.168 Y   8.215
G1 X   0.130 Y   8.182
G1 X   0.092 Y   8.149
G1 X   0.054 Y   8.117
G1 X   0.016 Y   8.085
G1 X  -0.022 Y   8.053
G1 X  -0.061 Y   8.021
G1 X  -0.099 Y   7.989
G1 X  -0.138 Y   7.957
G1 X  -0.177 Y   7.926
G1 X  -0.216 Y   7.894
G1 X  -0.255 Y   7.863
G1 X  -0.294 Y   7.832
G1 X  -0.333 Y   7.801
G1 X  -0.373 Y   7.770
G1 X  -0.412 Y   7.740
G1 X  -0.452 Y   7.709
G1 X  -0.491 Y   7.679
G1 X  -0.531 Y   7.648
G1 X  -0.571 Y   7.618
G1 X  -0.611 Y   7.588
G1 X  -0.652 Y   7.559
G1 X  -0.692 Y   7.529
G1 X  -0.732 Y   7.500
G1 X  -0.773 Y   7.470
G1 X  -0.813 Y   7.441
G1 X  -0.854 Y   7.412
G1 X  -0.895 Y   7.384
G1 X  -0.936 Y   7.355
G1 X  -0.977 Y   7.327
G1 X  -1.019 Y   7.298
G1 X  -1.060 Y   7.270
G1 X  -1.101 Y   7.242
G1 X  -1.143 Y   7.215
G1 X  -1.185 Y   7.187
G1 X  -1.227 Y   7.160
G1 X  -1.269 Y   7.133
G1 X  -1.311 Y   7.106
G1 X  -1.353 Y   7.079
G1 X  -1.395 Y   7.052
G1 X  -1.438 Y   7.026
G1 X  -1.480 Y   7.000
G1 X  -1.523 Y   6.974
G1 X  -1.566 Y   6.948
G1 X  -1.609 Y   6.923
G1 X  -1.652 Y   6.897
G1 X  -1.695 Y   6.872
G1 X  -1.739 Y   6.847
G1 X  -1.782 Y   6.823
G1 X  -1.826 Y   6.798
G1 X  -1.870 Y   6.774
G1 X  -1.914 Y   6.750
G1 X  -1.958 Y   6.726
G1 X  -2.002 Y   6.703
G1 X  -2.046 Y   6.680
G1 X  -2.090 Y   6.657
G1 X  -2.135 Y   6.634
G1 X  -2.180 Y   6.612
G1 X  -2.225 Y   6.590
G1 X  -2.270 Y   6.568
G1 X  -2.315 Y   6.547
G1 X  -2.360 Y   6.525
G1 X  -2.406 Y   6.505
G1 X  -2.451 Y   6.484
G1 X  -2.497 Y   6.464
G1 X  -2.543 Y   6.444
G1 X  -2.589 Y   6.425
G1 X  -2.635 Y   6.406
G1 X  -2.682 Y   6.387
G1 X  -2.728 Y   6.369
G1 X  -2.775 Y   6.351
G1 X  -2.822 Y   6.334
G1 X  -2.869 Y   6.318
G1 X  -2.916 Y   6.302
G1 X  -2.964 Y   6.286
G1 X  -3.012 Y   6.272
G1 X  -3.807 Y   6.100
G3 X  -4.697 Y   4.788 I   0.238 J  -1.119
G2 X  -4.521 Y   3.619 I -27.803 J  -4.788
G3 X  -3.284 Y   2.628 I   1.134 J   0.148
G1 X  -2.473 Y   2.699
G1 X  -2.433 Y   2.699
G1 X  -2.383 Y   2.698
G1 X  -2.333 Y   2.697
G1 X  -2.283 Y   2.695
G1 X  -2.233 Y   2.693
G1 X  -2.183 Y   2.690
G1 X  -2.133 Y   2.686
G1 X  -2.083 Y   2.682
G1 X  -2.033 Y   2.678
G1 X  -1.984 Y   2.673
G1 X  -1.934 Y   2.668
G1 X  -1.884 Y   2.662
G1 X  -1.835 Y   2.656
G1 X  -1.785 Y   2.650
G1 X  -1.736 Y   2.643
G1 X  -1.686 Y   2.636
G1 X  -1.637 Y   2.628
G1 X  -1.587 Y   2.620
G1 X  -1.538 Y   2.612
G1 X  -1.489 Y   2.604
G1 X  -1.439 Y   2.595
G1 X  -1.390 Y   2.586
G1 X  -1.341 Y   2.577
G1 X  -1.292 Y   2.567
G1 X  -1.243 Y   2.557
G1 X  -1.194 Y   2.547
G1 X  -1.145 Y   2.537
G1 X  -1.096 Y   2.526
G1 X  -1.048 Y   2.515
G1 X  -0.999 Y   2.504
G1 X  -0.950 Y   2.492
G1 X  -0.902 Y   2.481
G1 X  -0.853 Y   2.469
G1 X  -0.804 Y   2.457
G1 X  -0.756 Y   2.444
G1 X  -0.708 Y   2.432
G1 X  -0.659 Y   2.419
G1 X  -0.611 Y   2.406
G1 X  -0.563 Y   2.392
G1 X  -0.515 Y   2.379
G1 X  -0.467 Y   2.365
G1 X  -0.419 Y   2.351
G1 X  -0.371 Y   2.337
G1 X  -0.323 Y   2.323
G1 X  -0.275 Y   2.308
G1 X  -0.227 Y   2.293
G1 X  -0.180 Y   2.278
G1 X  -0.132 Y   2.263
G1 X  -0.084 Y   2.248
G1 X  -0.037 Y   2.232
G1 X   0.011 Y   2.216
G1 X   0.058 Y   2.200
G1 X   0.105 Y   2.184
G1 X   0.153 Y   2.168
G1 X   0.200 Y   2.151
G1 X   0.247 Y   2.134
G1 X   0.294 Y   2.118
G1 X   0.341 Y   2.100
G1 X   0.388 Y   2.083
G1 X   0.435 Y   2.066
G1 X   0.481 Y   2.048
G1 X   0.528 Y   2.030
G1 X   0.575 Y   2.012
G1 X   0.621 Y   1.994
G1 X   0.668 Y   1.976
G1 X   0.714 Y   1.957
G1 X   0.761 Y   1.939
G1 X   0.807 Y   1.920
G1 X   0.853 Y   1.901
G1 X   0.900 Y   1.882
G1 X   0.946 Y   1.862
G1 X   0.992 Y   1.843
G1 X   1.038 Y   1.823
G1 X   1.084 Y   1.803
G1 X   1.129 Y   1.783
G1 X   1.175 Y   1.763
G1 X   1.221 Y   1.743
G1 X   1.266 Y   1.722
G1 X   1.312 Y   1.702
G1 X   1.358 Y   1.681
G1 X   1.403 Y   1.660
G1 X   1.448 Y   1.639
G1 X   1.494 Y   1.618
G1 X   1.539 Y   1.596
G1 X   1.584 Y   1.575
G1 X   1.629 Y   1.553
G1 X   1.674 Y   1.531
G1 X   1.719 Y   1.509
G1 X   1.764 Y   1.487
G1 X   1.808 Y   1.465
G1 X   1.853 Y   1.443
G1 X   1.898 Y   1.420
G1 X   1.942 Y   1.398
G1 X   1.987 Y   1.375
G1 X   2.031 Y   1.352
G1 X   2.076 Y   1.329
G1 X   2.120 Y   1.305
G1 X   2.164 Y   1.282
G1 X   2.208 Y   1.259
G1 X   2.252 Y   1.235
G1 X   2.296 Y   1.211
G1 X   2.340 Y   1.187
G1 X   2.384 Y   1.163
G1 X   2.428 Y   1.139
G1 X   2.471 Y   1.115
G1 X   2.515 Y   1.090
G1 X   2.559 Y   1.066
G2 X   2.559 Y  -1.066 I -35.059 J  -1.066
G1 X   2.523 Y  -1.086
G1 X   2.480 Y  -1.110
G1 X   2.436 Y  -1.134
G1 X   2.392 Y  -1.159
G1 X   2.348 Y  -1.183
G1 X   2.305 Y  -1.207
G1 X   2.261 Y  -1.230
G1 X   2.217 Y  -1.254
G1 X   2.172 Y  -1.278
G1 X   2.128 Y  -1.301
G1 X   2.084 Y  -1.324
G1 X   2.040 Y  -1.347
G1 X   1.995 Y  -1.370
G1 X   1.951 Y  -1.393
G1 X   1.906 Y  -1.416
G1 X   1.862 Y  -1.438
G1 X   1.817 Y  -1.461
G1 X   1.772 Y  -1.483
G1 X   1.727 Y  -1.505
G1 X   1.682 Y  -1.527
G1 X   1.637 Y  -1.549
G1 X   1.592 Y  -1.571
G1 X   1.547 Y  -1.592
G1 X   1.502 Y  -1.614
G1 X   1.457 Y  -1.635
G1 X   1.412 Y  -1.656
G1 X   1.366 Y  -1.677
G1 X   1.321 Y  -1.698
G1 X   1.275 Y  -1.718
G1 X   1.229 Y  -1.739
G1 X   1.184 Y  -1.759
G1 X   1.138 Y  -1.779
G1 X   1.092 Y  -1.799
G1 X   1.046 Y  -1.819
G1 X   1.000 Y  -1.839
G1 X   0.954 Y  -1.859
G1 X   0.908 Y  -1.878
G1 X   0.862 Y  -1.897
G1 X   0.816 Y  -1.916
G1 X   0.770 Y  -1.935
F30
G1 Z   3.000
G0 Z  15.000 
G40
M9 M5
G0 X   0.000 Y   0.000
G40 G53 G0 X0 Y0 Z0 M2 (Program end)