(Generated with: DXF2GCODE, Version: PyQt4 Beta, Date: $Date:: 2015-02-04 13:44:52#$)
(Created from file: /home/bp/Documents/Usinages/BaseRoulante/BR_chassis.dxf)
(Time: Wed May  6 12:59:07 2015)
G21 (Units in millimeters) (PLEASE CHECK TOOL WITH EMC2 TOOL TABLE) G90 (Absolute programming) G64 (Default cutting) G17 (XY plane) G40 (Cancel radius comp.) G49 (Cancel length comp.)
G0 Z  15.000 

(*** LAYER: 0 ***)
T2 M6
S6000

(* SHAPE Nr: 1 - Bille G *)
G0 X  77.428 Y  41.124
M3 M8
G42
F120
G1 X  77.842 Y  39.296
G2 X  74.186 Y  39.296 I  -1.828 J   1.828
G0 Z   3.000 
F40
G1 Z  -1.500
F120
G2 X  96.814 Y  61.924 I  11.314 J  11.314
G2 X  74.186 Y  39.296 I -11.314 J -11.314
F40
G1 Z  -3.000
F120
G2 X  96.814 Y  61.924 I  11.314 J  11.314
G2 X  74.186 Y  39.296 I -11.314 J -11.314
F40
G1 Z  -4.500
F120
G2 X  96.814 Y  61.924 I  11.314 J  11.314
G2 X  74.186 Y  39.296 I -11.314 J -11.314
F40
G1 Z  -6.000
F120
G2 X  96.814 Y  61.924 I  11.314 J  11.314
G2 X  74.186 Y  39.296 I -11.314 J -11.314
F40
G1 Z  -7.500
F120
G2 X  96.814 Y  61.924 I  11.314 J  11.314
G2 X  74.186 Y  39.296 I -11.314 J -11.314
F40
G1 Z  -9.000
F120
G2 X  96.814 Y  61.924 I  11.314 J  11.314
G2 X  74.186 Y  39.296 I -11.314 J -11.314
F40
G1 Z -10.000
F120
G2 X  96.814 Y  61.924 I  11.314 J  11.314
G2 X  74.186 Y  39.296 I -11.314 J -11.314
F40
G1 Z   3.000
G0 Z  15.000 
G40

(* SHAPE Nr: 2 - Bille D *)
G0 X 256.428 Y  41.124
G42
F120
G1 X 256.842 Y  39.296
G2 X 253.186 Y  39.296 I  -1.828 J   1.828
G0 Z   3.000 
F40
G1 Z  -1.500
F120
G2 X 275.814 Y  61.924 I  11.314 J  11.314
G2 X 253.186 Y  39.296 I -11.314 J -11.314
F40
G1 Z  -3.000
F120
G2 X 275.814 Y  61.924 I  11.314 J  11.314
G2 X 253.186 Y  39.296 I -11.314 J -11.314
F40
G1 Z  -4.500
F120
G2 X 275.814 Y  61.924 I  11.314 J  11.314
G2 X 253.186 Y  39.296 I -11.314 J -11.314
F40
G1 Z  -6.000
F120
G2 X 275.814 Y  61.924 I  11.314 J  11.314
G2 X 253.186 Y  39.296 I -11.314 J -11.314
F40
G1 Z  -7.500
F120
G2 X 275.814 Y  61.924 I  11.314 J  11.314
G2 X 253.186 Y  39.296 I -11.314 J -11.314
F40
G1 Z  -9.000
F120
G2 X 275.814 Y  61.924 I  11.314 J  11.314
G2 X 253.186 Y  39.296 I -11.314 J -11.314
F40
G1 Z -10.000
F120
G2 X 275.814 Y  61.924 I  11.314 J  11.314
G2 X 253.186 Y  39.296 I -11.314 J -11.314
F40
G1 Z   3.000
G0 Z  15.000 
G40

(* SHAPE Nr: 0 - Bille Ar *)
G0 X 166.928 Y 299.624
G42
F120
G1 X 167.342 Y 297.796
G2 X 163.686 Y 297.796 I  -1.828 J   1.828
G0 Z   3.000 
F40
G1 Z  -1.500
F120
G2 X 186.314 Y 320.424 I  11.314 J  11.314
G2 X 163.686 Y 297.796 I -11.314 J -11.314
F40
G1 Z  -3.000
F120
G2 X 186.314 Y 320.424 I  11.314 J  11.314
G2 X 163.686 Y 297.796 I -11.314 J -11.314
F40
G1 Z  -4.500
F120
G2 X 186.314 Y 320.424 I  11.314 J  11.314
G2 X 163.686 Y 297.796 I -11.314 J -11.314
F40
G1 Z  -6.000
F120
G2 X 186.314 Y 320.424 I  11.314 J  11.314
G2 X 163.686 Y 297.796 I -11.314 J -11.314
F40
G1 Z  -7.500
F120
G2 X 186.314 Y 320.424 I  11.314 J  11.314
G2 X 163.686 Y 297.796 I -11.314 J -11.314
F40
G1 Z  -9.000
F120
G2 X 186.314 Y 320.424 I  11.314 J  11.314
G2 X 163.686 Y 297.796 I -11.314 J -11.314
F40
G1 Z -10.000
F120
G2 X 186.314 Y 320.424 I  11.314 J  11.314
G2 X 163.686 Y 297.796 I -11.314 J -11.314
F40
G1 Z   3.000
G0 Z  15.000 
G40

(* SHAPE Nr: 5 - Roue G *)
G0 X 283.585 Y 136.110
G42
F120
G1 X 282.585 Y 134.525
G2 X 280.000 Y 137.110 I   0.000 J   2.585
G0 Z   3.000 
F40
G1 Z  -1.500
F120
G1 X 280.000 Y 212.110
G1 X 340.000 Y 212.110
G1 X 340.000 Y 137.110
G1 X 280.000 Y 137.110
F40
G1 Z  -3.000
F120
G1 X 280.000 Y 212.110
G1 X 340.000 Y 212.110
G1 X 340.000 Y 137.110
G1 X 280.000 Y 137.110
F40
G1 Z  -4.500
F120
G1 X 280.000 Y 212.110
G1 X 340.000 Y 212.110
G1 X 340.000 Y 137.110
G1 X 280.000 Y 137.110
F40
G1 Z  -6.000
F120
G1 X 280.000 Y 212.110
G1 X 340.000 Y 212.110
G1 X 340.000 Y 137.110
G1 X 280.000 Y 137.110
F40
G1 Z  -7.500
F120
G1 X 280.000 Y 212.110
G1 X 340.000 Y 212.110
G1 X 340.000 Y 137.110
G1 X 280.000 Y 137.110
F40
G1 Z  -9.000
F120
G1 X 280.000 Y 212.110
G1 X 340.000 Y 212.110
G1 X 340.000 Y 137.110
G1 X 280.000 Y 137.110
F40
G1 Z -10.000
F120
G1 X 280.000 Y 212.110
G1 X 340.000 Y 212.110
G1 X 340.000 Y 137.110
G1 X 280.000 Y 137.110
F40
G1 Z   3.000
G0 Z  15.000 
G40

(* SHAPE Nr: 7 - Codeur G *)
G0 X 211.585 Y 148.610
G42
F120
G1 X 210.585 Y 147.025
G2 X 208.000 Y 149.610 I   0.000 J   2.585
G0 Z   3.000 
F40
G1 Z  -1.500
F120
G1 X 208.000 Y 199.610
G1 X 270.000 Y 199.610
G1 X 270.000 Y 149.610
G1 X 208.000 Y 149.610
F40
G1 Z  -3.000
F120
G1 X 208.000 Y 199.610
G1 X 270.000 Y 199.610
G1 X 270.000 Y 149.610
G1 X 208.000 Y 149.610
F40
G1 Z  -4.500
F120
G1 X 208.000 Y 199.610
G1 X 270.000 Y 199.610
G1 X 270.000 Y 149.610
G1 X 208.000 Y 149.610
F40
G1 Z  -6.000
F120
G1 X 208.000 Y 199.610
G1 X 270.000 Y 199.610
G1 X 270.000 Y 149.610
G1 X 208.000 Y 149.610
F40
G1 Z  -7.500
F120
G1 X 208.000 Y 199.610
G1 X 270.000 Y 199.610
G1 X 270.000 Y 149.610
G1 X 208.000 Y 149.610
F40
G1 Z  -9.000
F120
G1 X 208.000 Y 199.610
G1 X 270.000 Y 199.610
G1 X 270.000 Y 149.610
G1 X 208.000 Y 149.610
F40
G1 Z -10.000
F120
G1 X 208.000 Y 199.610
G1 X 270.000 Y 199.610
G1 X 270.000 Y 149.610
G1 X 208.000 Y 149.610
F40
G1 Z   3.000
G0 Z  15.000 
G40

(* SHAPE Nr: 6 - Codeur D *)
G0 X  83.585 Y 148.610
G42
F120
G1 X  82.585 Y 147.025
G2 X  80.000 Y 149.610 I   0.000 J   2.585
G0 Z   3.000 
F40
G1 Z  -1.500
F120
G1 X  80.000 Y 199.610
G1 X 142.000 Y 199.610
G1 X 142.000 Y 149.610
G1 X  80.000 Y 149.610
F40
G1 Z  -3.000
F120
G1 X  80.000 Y 199.610
G1 X 142.000 Y 199.610
G1 X 142.000 Y 149.610
G1 X  80.000 Y 149.610
F40
G1 Z  -4.500
F120
G1 X  80.000 Y 199.610
G1 X 142.000 Y 199.610
G1 X 142.000 Y 149.610
G1 X  80.000 Y 149.610
F40
G1 Z  -6.000
F120
G1 X  80.000 Y 199.610
G1 X 142.000 Y 199.610
G1 X 142.000 Y 149.610
G1 X  80.000 Y 149.610
F40
G1 Z  -7.500
F120
G1 X  80.000 Y 199.610
G1 X 142.000 Y 199.610
G1 X 142.000 Y 149.610
G1 X  80.000 Y 149.610
F40
G1 Z  -9.000
F120
G1 X  80.000 Y 199.610
G1 X 142.000 Y 199.610
G1 X 142.000 Y 149.610
G1 X  80.000 Y 149.610
F40
G1 Z -10.000
F120
G1 X  80.000 Y 199.610
G1 X 142.000 Y 199.610
G1 X 142.000 Y 149.610
G1 X  80.000 Y 149.610
F40
G1 Z   3.000
G0 Z  15.000 
G40

(* SHAPE Nr: 4 - Roue D *)
G0 X  13.585 Y 136.110
G42
F120
G1 X  12.585 Y 134.525
G2 X  10.000 Y 137.110 I   0.000 J   2.585
G0 Z   3.000 
F40
G1 Z  -1.500
F120
G1 X  10.000 Y 212.110
G1 X  70.000 Y 212.110
G1 X  70.000 Y 137.110
G1 X  10.000 Y 137.110
F40
G1 Z  -3.000
F120
G1 X  10.000 Y 212.110
G1 X  70.000 Y 212.110
G1 X  70.000 Y 137.110
G1 X  10.000 Y 137.110
F40
G1 Z  -4.500
F120
G1 X  10.000 Y 212.110
G1 X  70.000 Y 212.110
G1 X  70.000 Y 137.110
G1 X  10.000 Y 137.110
F40
G1 Z  -6.000
F120
G1 X  10.000 Y 212.110
G1 X  70.000 Y 212.110
G1 X  70.000 Y 137.110
G1 X  10.000 Y 137.110
F40
G1 Z  -7.500
F120
G1 X  10.000 Y 212.110
G1 X  70.000 Y 212.110
G1 X  70.000 Y 137.110
G1 X  10.000 Y 137.110
F40
G1 Z  -9.000
F120
G1 X  10.000 Y 212.110
G1 X  70.000 Y 212.110
G1 X  70.000 Y 137.110
G1 X  10.000 Y 137.110
F40
G1 Z -10.000
F120
G1 X  10.000 Y 212.110
G1 X  70.000 Y 212.110
G1 X  70.000 Y 137.110
G1 X  10.000 Y 137.110
F40
G1 Z   3.000
G0 Z  15.000 
G40

(* SHAPE Nr: 3 - Contour *)
G0 X 100.272 Y   2.033
G42
F120
G1 X 100.019 Y   3.890
G2 X 103.661 Y   3.572 I   1.662 J  -1.980
G0 Z   3.000 
F40
G1 Z  -1.500
F120
G3 X 118.392 Y   2.929 I   7.660 J   6.428
G1 X 153.787 Y  38.323
G2 X 196.213 Y  38.323 I  21.213 J -21.213
G1 X 231.608 Y   2.929
G3 X 246.339 Y   3.572 I   7.071 J   7.071
G1 X 350.000 Y 127.110
G1 X 350.000 Y 277.110
G1 X 300.000 Y 327.110
G1 X  50.000 Y 327.110
G1 X   0.000 Y 277.110
G1 X   0.000 Y 127.110
G1 X 103.661 Y   3.572
F40
G1 Z  -3.000
F120
G3 X 118.392 Y   2.929 I   7.660 J   6.428
G1 X 153.787 Y  38.323
G2 X 196.213 Y  38.323 I  21.213 J -21.213
G1 X 231.608 Y   2.929
G3 X 246.339 Y   3.572 I   7.071 J   7.071
G1 X 350.000 Y 127.110
G1 X 350.000 Y 277.110
G1 X 300.000 Y 327.110
G1 X  50.000 Y 327.110
G1 X   0.000 Y 277.110
G1 X   0.000 Y 127.110
G1 X 103.661 Y   3.572
F40
G1 Z  -4.500
F120
G3 X 118.392 Y   2.929 I   7.660 J   6.428
G1 X 153.787 Y  38.323
G2 X 196.213 Y  38.323 I  21.213 J -21.213
G1 X 231.608 Y   2.929
G3 X 246.339 Y   3.572 I   7.071 J   7.071
G1 X 350.000 Y 127.110
G1 X 350.000 Y 277.110
G1 X 300.000 Y 327.110
G1 X  50.000 Y 327.110
G1 X   0.000 Y 277.110
G1 X   0.000 Y 127.110
G1 X 103.661 Y   3.572
F40
G1 Z  -6.000
F120
G3 X 118.392 Y   2.929 I   7.660 J   6.428
G1 X 153.787 Y  38.323
G2 X 196.213 Y  38.323 I  21.213 J -21.213
G1 X 231.608 Y   2.929
G3 X 246.339 Y   3.572 I   7.071 J   7.071
G1 X 350.000 Y 127.110
G1 X 350.000 Y 277.110
G1 X 300.000 Y 327.110
G1 X  50.000 Y 327.110
G1 X   0.000 Y 277.110
G1 X   0.000 Y 127.110
G1 X 103.661 Y   3.572
F40
G1 Z  -7.500
F120
G3 X 118.392 Y   2.929 I   7.660 J   6.428
G1 X 153.787 Y  38.323
G2 X 196.213 Y  38.323 I  21.213 J -21.213
G1 X 231.608 Y   2.929
G3 X 246.339 Y   3.572 I   7.071 J   7.071
G1 X 350.000 Y 127.110
G1 X 350.000 Y 277.110
G1 X 300.000 Y 327.110
G1 X  50.000 Y 327.110
G1 X   0.000 Y 277.110
G1 X   0.000 Y 127.110
G1 X 103.661 Y   3.572
F40
G1 Z  -9.000
F120
G3 X 118.392 Y   2.929 I   7.660 J   6.428
G1 X 153.787 Y  38.323
G2 X 196.213 Y  38.323 I  21.213 J -21.213
G1 X 231.608 Y   2.929
G3 X 246.339 Y   3.572 I   7.071 J   7.071
G1 X 350.000 Y 127.110
G1 X 350.000 Y 277.110
G1 X 300.000 Y 327.110
G1 X  50.000 Y 327.110
G1 X   0.000 Y 277.110
G1 X   0.000 Y 127.110
G1 X 103.661 Y   3.572
F40
G1 Z -10.000
F120
G3 X 118.392 Y   2.929 I   7.660 J   6.428
G1 X 153.787 Y  38.323
G2 X 196.213 Y  38.323 I  21.213 J -21.213
G1 X 231.608 Y   2.929
G3 X 246.339 Y   3.572 I   7.071 J   7.071
G1 X 350.000 Y 127.110
G1 X 350.000 Y 277.110
G1 X 300.000 Y 327.110
G1 X  50.000 Y 327.110
G1 X   0.000 Y 277.110
G1 X   0.000 Y 127.110
G1 X 103.661 Y   3.572
F40
G1 Z   3.000
G0 Z  15.000 
G40
M9 M5

G0 X   0.000 Y   0.000
G40 G53 G0 X0 Y0 Z0 M2 (Program end)